; generated by Slic3r 1.2.9 on 2017-09-13 at 18:33:08

; external perimeters extrusion width = 5.00mm
; perimeters extrusion width = 5.25mm
; infill extrusion width = 5.25mm
; solid infill extrusion width = 5.25mm
; top infill extrusion width = 5.25mm

; external perimeters extrusion width = 5.00mm
; perimeters extrusion width = 5.25mm
; infill extrusion width = 5.25mm
; solid infill extrusion width = 5.25mm
; top infill extrusion width = 5.25mm

G28 ; home all axes

G21 ; set units to millimeters
G90 ; use absolute coordinates
M82 ; use absolute distances for extrusion
G92 E0
T0
G92 E0
G1 Z5.000 F7800.000
G1 X56.729 Y67.304 F7800.000
G1 X63.875 Y67.304 E7.14602 F4800.000
G1 X63.875 Y74.450 E14.29204
G1 X56.729 Y74.450 E21.43806
G1 X56.729 Y68.054 E27.83408
G92 E0
G1 X52.802 Y63.377 F7800.000
G1 X67.802 Y63.377 E15.00000 F4800.000
G1 X67.802 Y78.377 E30.00000
G1 X52.802 Y78.377 E45.00000
G1 X52.802 Y64.127 E59.25000
G1 X57.132 Y65.877 F7800.000
G92 E0
G1 X59.684 Y69.789 F7800.000
G1 X61.390 Y71.495 E2.41277 F4800.000
G1 Z5.000 F7800.000
G92 E0
T1
G92 E0
G1 X97.119 Y74.089 F7800.000
G1 X97.119 Y66.943 E7.14602 F4800.000
G1 X104.265 Y66.943 E14.29204
G1 X104.265 Y74.089 E21.43806
G1 X97.869 Y74.089 E27.83408
G92 E0
G1 X93.192 Y78.016 F7800.000
G1 X93.192 Y63.016 E15.00000 F4800.000
G1 X108.192 Y63.016 E30.00000
G1 X108.192 Y78.016 E45.00000
G1 X93.942 Y78.016 E59.25000
G1 X95.692 Y73.686 F7800.000
G92 E0
G1 X101.780 Y71.134 F7800.000
G1 X100.074 Y69.428 E2.41277 F4800.000
G1 Z10.000 F7800.000
G92 E0
T0
G92 E0
G1 X56.854 Y67.429 F7800.000
G1 X63.750 Y67.429 E7.33503 F900.000
G1 X63.750 Y74.325 E14.67006
G1 X56.854 Y74.325 E22.00510
G1 X56.854 Y68.179 E28.54238
G92 E0
G1 X52.802 Y63.377 F7800.000
G1 X67.802 Y63.377 E15.00000 F2400.000
G1 X67.802 Y78.377 E30.00000
G1 X52.802 Y78.377 E45.00000
G1 X52.802 Y64.127 E59.25000
G1 X57.132 Y65.877 F7800.000
G1 Z10.000 F7800.000
G92 E0
T1
G92 E0
G1 X97.244 Y73.964 F7800.000
G1 X97.244 Y67.068 E7.33503 F900.000
G1 X104.140 Y67.068 E14.67006
G1 X104.140 Y73.964 E22.00510
G1 X97.994 Y73.964 E28.54238
G92 E0
G1 X93.192 Y78.016 F7800.000
G1 X93.192 Y63.016 E15.00000 F2400.000
G1 X108.192 Y63.016 E30.00000
G1 X108.192 Y78.016 E45.00000
G1 X93.942 Y78.016 E59.25000
G1 X95.692 Y73.686 F7800.000
G1 Z15.000 F7800.000
G92 E0
T0
G92 E0
G1 X56.854 Y67.429 F7800.000
G1 X63.750 Y67.429 E7.33503 F900.000
G1 X63.750 Y74.325 E14.67006
G1 X56.854 Y74.325 E22.00510
G1 X56.854 Y68.179 E28.54238
G92 E0
G1 X52.802 Y63.377 F7800.000
G1 X67.802 Y63.377 E15.00000 F2400.000
G1 X67.802 Y78.377 E30.00000
G1 X52.802 Y78.377 E45.00000
G1 X52.802 Y64.127 E59.25000
G1 X57.132 Y65.877 F7800.000
G1 Z15.000 F7800.000
G92 E0
T1
G92 E0
G1 X97.244 Y73.964 F7800.000
G1 X97.244 Y67.068 E7.33503 F900.000
G1 X104.140 Y67.068 E14.67006
G1 X104.140 Y73.964 E22.00510
G1 X97.994 Y73.964 E28.54238
G92 E0
G1 X93.192 Y78.016 F7800.000
G1 X93.192 Y63.016 E15.00000 F2400.000
G1 X108.192 Y63.016 E30.00000
G1 X108.192 Y78.016 E45.00000
G1 X93.942 Y78.016 E59.25000
G1 X95.692 Y73.686 F7800.000
G1 Z20.000 F7800.000
G92 E0
T0
G92 E0
G1 X56.854 Y67.429 F7800.000
G1 X63.750 Y67.429 E7.33503 F900.000
G1 X63.750 Y74.325 E14.67006
G1 X56.854 Y74.325 E22.00510
G1 X56.854 Y68.179 E28.54238
G92 E0
G1 X52.802 Y63.377 F7800.000
G1 X67.802 Y63.377 E15.00000 F2400.000
G1 X67.802 Y78.377 E30.00000
G1 X52.802 Y78.377 E45.00000
G1 X52.802 Y64.127 E59.25000
G1 X57.132 Y65.877 F7800.000
G1 Z20.000 F7800.000
G92 E0
T1
G92 E0
G1 X97.244 Y73.964 F7800.000
G1 X97.244 Y67.068 E7.33503 F900.000
G1 X104.140 Y67.068 E14.67006
G1 X104.140 Y73.964 E22.00510
G1 X97.994 Y73.964 E28.54238
G92 E0
G1 X93.192 Y78.016 F7800.000
G1 X93.192 Y63.016 E15.00000 F2400.000
G1 X108.192 Y63.016 E30.00000
G1 X108.192 Y78.016 E45.00000
G1 X93.942 Y78.016 E59.25000
G1 X95.692 Y73.686 F7800.000
G92 E0
M104 S0 ; turn off temperature
G28 X0  ; home X axis
M84     ; disable motors

; filament used = 352.9mm (6.9cm3)
; filament used = 352.9mm (6.9cm3)

; avoid_crossing_perimeters = 0
; bed_shape = 0x0,200x0,200x200,0x200
; bed_temperature = 0
; before_layer_gcode = 
; bridge_acceleration = 0
; bridge_fan_speed = 0
; brim_width = 0
; complete_objects = 0
; cooling = 0
; default_acceleration = 0
; disable_fan_first_layers = 3
; duplicate_distance = 6
; end_gcode = M104 S0 ; turn off temperature\nG28 X0  ; home X axis\nM84     ; disable motors\n
; extruder_clearance_height = 20
; extruder_clearance_radius = 20
; extruder_offset = 0x0,0x0
; extrusion_axis = E
; extrusion_multiplier = 1,1
; fan_always_on = 0
; fan_below_layer_time = 60
; filament_colour = #FFFFFF;#FFFFFF
; filament_diameter = 5,5
; first_layer_acceleration = 0
; first_layer_bed_temperature = 0
; first_layer_extrusion_width = 100%
; first_layer_speed = 80
; first_layer_temperature = 0,0
; gcode_arcs = 0
; gcode_comments = 0
; gcode_flavor = reprap
; infill_acceleration = 0
; infill_first = 0
; layer_gcode = 
; max_fan_speed = 100
; max_print_speed = 80
; max_volumetric_speed = 0
; min_fan_speed = 35
; min_print_speed = 10
; min_skirt_length = 0
; notes = 
; nozzle_diameter = 5,5
; only_retract_when_crossing_perimeters = 0
; ooze_prevention = 0
; output_filename_format = [input_filename_base].gcode
; perimeter_acceleration = 0
; post_process = 
; pressure_advance = 0
; resolution = 0
; retract_before_travel = 2,2
; retract_layer_change = 0,0
; retract_length = 0,0
; retract_length_toolchange = 0,0
; retract_lift = 0,0
; retract_restart_extra = 0,0
; retract_restart_extra_toolchange = 0,0
; retract_speed = 40,40
; skirt_distance = 6
; skirt_height = 1
; skirts = 0
; slowdown_below_layer_time = 5
; spiral_vase = 0
; standby_temperature_delta = -5
; start_gcode = G28 ; home all axes\n
; temperature = 0,0
; threads = 2
; toolchange_gcode = 
; travel_speed = 130
; use_firmware_retraction = 0
; use_relative_e_distances = 0
; use_volumetric_e = 0
; vibration_limit = 0
; wipe = 0,0
; z_offset = 0
; dont_support_bridges = 1
; extrusion_width = 0
; first_layer_height = 5
; infill_only_where_needed = 0
; interface_shells = 0
; layer_height = 5
; raft_layers = 0
; seam_position = aligned
; support_material = 0
; support_material_angle = 0
; support_material_contact_distance = 0.2
; support_material_enforce_layers = 0
; support_material_extruder = 1
; support_material_extrusion_width = 0
; support_material_interface_extruder = 1
; support_material_interface_layers = 3
; support_material_interface_spacing = 0
; support_material_interface_speed = 100%
; support_material_pattern = pillars
; support_material_spacing = 2.5
; support_material_speed = 60
; support_material_threshold = 0
; xy_size_compensation = 0
; bottom_solid_layers = 3
; bridge_flow_ratio = 1
; bridge_speed = 60
; external_fill_pattern = rectilinear
; external_perimeter_extrusion_width = 0
; external_perimeter_speed = 50%
; external_perimeters_first = 0
; extra_perimeters = 1
; fill_angle = 45
; fill_density = 5%
; fill_pattern = rectilinear
; gap_fill_speed = 20
; infill_every_layers = 1
; infill_extruder = 1
; infill_extrusion_width = 0
; infill_overlap = 15%
; infill_speed = 80
; overhangs = 1
; perimeter_extruder = 1
; perimeter_extrusion_width = 0
; perimeter_speed = 80
; perimeters = 3
; small_perimeter_speed = 15
; solid_infill_below_area = 70
; solid_infill_every_layers = 0
; solid_infill_extruder = 1
; solid_infill_extrusion_width = 0
; solid_infill_speed = 20
; thin_walls = 1
; top_infill_extrusion_width = 0
; top_solid_infill_speed = 15
; top_solid_layers = 3
