; generated by Slic3r 1.2.9 on 2017-04-30 at 23:05:39

; external perimeters extrusion width = 5.00mm
; perimeters extrusion width = 5.25mm
; infill extrusion width = 5.25mm
; solid infill extrusion width = 5.25mm
; top infill extrusion width = 5.25mm

; external perimeters extrusion width = 5.00mm
; perimeters extrusion width = 5.25mm
; infill extrusion width = 5.25mm
; solid infill extrusion width = 5.25mm
; top infill extrusion width = 5.25mm

; external perimeters extrusion width = 5.00mm
; perimeters extrusion width = 5.25mm
; infill extrusion width = 5.25mm
; solid infill extrusion width = 5.25mm
; top infill extrusion width = 5.25mm

G28 ; home all axes
G21 ; set units to millimeters
G90 ; use absolute coordinates
M82 ; use absolute distances for extrusion
G92 E0
T0
G92 E0
;Before layer change

G1 Z1.000 F6000.000
;After layer change

G1 X83.764 Y85.339 F6000.000
G1 X85.552 Y83.610 E5.65498 F1800.000
G1 X87.795 Y82.533 E11.30997
G1 X90.000 Y82.215 E16.37530
G1 X110.000 Y82.215 E61.84009
G1 X112.456 Y82.612 E67.49508
G1 X114.661 Y83.764 E73.15006 F1800.000
G1 X116.390 Y85.552 E78.80505
G1 X117.467 Y87.795 E84.46004
G1 X117.785 Y90.000 E89.52537
G1 X117.785 Y110.000 E134.99016
G1 X117.388 Y112.456 E140.64514
G1 X116.236 Y114.661 E146.30013
G1 X114.448 Y116.390 E151.95511
G1 X112.205 Y117.467 E157.61010
G1 X110.000 Y117.785 E162.67543
G1 X90.000 Y117.785 E208.14022
G1 X87.544 Y117.388 E213.79521
G1 X85.339 Y116.236 E219.45019
G1 X83.610 Y114.448 E225.10518
G1 X82.533 Y112.205 E230.76016
G1 X82.215 Y110.000 E235.82549
G1 X82.215 Y90.000 E281.29028
G1 X82.612 Y87.544 E286.94527
G1 X83.417 Y86.004 E290.89533
G92 E0
G1 X109.000 Y109.000 F6000.000
G1 X91.000 Y109.000 E40.91831 F1800.000
G1 X91.000 Y91.000 E81.83662
G1 X109.000 Y91.000 E122.75493
G1 X109.000 Y108.250 E161.96831
G1 X107.881 Y92.916 F6000.000
G1 X107.084 Y92.119 E164.73105 F1800.000
G1 X104.363 Y92.119 E171.39628
G1 X107.881 Y95.637 E183.58509
G1 X107.881 Y98.358 E190.25032
G1 X101.642 Y92.119 E211.86518
G1 X98.921 Y92.119 E218.53041
G1 X107.881 Y101.079 E249.57134
G1 X107.881 Y103.800 E256.23657
G1 X96.200 Y92.119 E296.70355
G1 X93.479 Y92.119 E303.36878
G1 X107.881 Y106.521 E353.26182
G1 X106.521 Y107.881 E357.97485
G1 X92.119 Y93.479 E407.86789
G1 X92.119 Y96.200 E414.53312
G1 X103.800 Y107.881 E455.00009
G1 X101.079 Y107.881 E461.66532
G1 X92.119 Y98.921 E492.70624
G1 X92.119 Y101.642 E499.37146
G1 X98.358 Y107.881 E520.98632
G1 X95.637 Y107.881 E527.65155
G1 X92.119 Y104.363 E539.84035
G1 X92.119 Y107.084 E546.50557
G1 X92.916 Y107.881 E549.26831
;Before layer change

G1 Z6.000 F6000.000
;After layer change

G1 X107.500 Y107.500 F6000.000
G1 X92.500 Y107.500 E924.26831 F3000.000
G1 X92.500 Y92.500 E1299.26831
G1 X107.500 Y92.500 E1674.26831
G1 X107.500 Y106.750 E2030.51831
G1 X103.097 Y104.909 F6000.000
G1 X104.909 Y103.097 E2098.66620 F6000.000
G1 X104.889 Y95.111 E2311.01063
G1 X95.111 Y104.889 E2678.70577
G1 X95.091 Y96.903 E2891.05024
G1 X96.903 Y95.091 E2959.19797
;Before layer change

G1 Z11.000 F6000.000
;After layer change

G1 X107.500 Y107.500 F6000.000
G1 X92.500 Y107.500 E3334.19797 F3000.000
G1 X92.500 Y92.500 E3709.19797
G1 X107.500 Y92.500 E4084.19797
G1 X107.500 Y106.750 E4440.44797
G1 X104.909 Y96.903 F6000.000
G1 X103.097 Y95.091 E4508.59584 F6000.000
G1 X95.111 Y95.111 E4720.94027
G1 X104.889 Y104.889 E5088.63542
G1 X96.903 Y104.909 E5300.97990
G1 X95.091 Y103.097 E5369.12764
;Before layer change

G1 Z16.000 F6000.000
;After layer change

G1 X107.500 Y107.500 F6000.000
G1 X92.500 Y107.500 E5744.12764 F3000.000
G1 X92.500 Y92.500 E6119.12764
G1 X107.500 Y92.500 E6494.12764
G1 X107.500 Y106.750 E6850.37764
G1 X103.097 Y104.909 F6000.000
G1 X104.909 Y103.097 E6918.52554 F6000.000
G1 X104.889 Y95.111 E7130.86996
G1 X95.111 Y104.889 E7498.56510
G1 X95.091 Y96.903 E7710.90958
G1 X96.903 Y95.091 E7779.05730
;Before layer change

G1 Z21.000 F6000.000
;After layer change

G92 E0
G1 X107.500 Y107.500 F6000.000
G1 X92.500 Y107.500 E375.00000 F3000.000
G1 X92.500 Y92.500 E750.00000
G1 X107.500 Y92.500 E1125.00000
G1 X107.500 Y106.750 E1481.25000
G92 E0
G1 X104.909 Y96.903 F6000.000
G1 X103.097 Y95.091 E92.35433 F900.000
G1 X95.111 Y95.111 E380.12518
G1 X104.889 Y104.889 E878.42832
G1 X96.903 Y104.909 E1166.19924
G1 X95.091 Y103.097 E1258.55337
G92 E0
M104 S0 ; turn off temperature
G28 X0  ; home X axis
M84     ; disable motors

; filament used = 10809.8mm (8.5cm3)
; filament used = 0.0mm (0.0cm3)
; filament used = 0.0mm (0.0cm3)

; avoid_crossing_perimeters = 0
; bed_shape = 0x0,200x0,200x200,0x200
; bed_temperature = 0
; before_layer_gcode = ;Before layer change\n
; bridge_acceleration = 0
; bridge_fan_speed = 0
; brim_width = 0
; complete_objects = 0
; cooling = 0
; default_acceleration = 0
; disable_fan_first_layers = 3
; duplicate_distance = 6
; end_gcode = M104 S0 ; turn off temperature\nG28 X0  ; home X axis\nM84     ; disable motors\n
; extruder_clearance_height = 20
; extruder_clearance_radius = 20
; extruder_offset = 0x0,0x0,0x0
; extrusion_axis = E
; extrusion_multiplier = 1,1,1
; fan_always_on = 0
; fan_below_layer_time = 60
; filament_colour = #FFFFFF;#FFFFFF;#FFFFFF
; filament_diameter = 1,1,1
; first_layer_acceleration = 0
; first_layer_bed_temperature = 0
; first_layer_extrusion_width = 200%
; first_layer_speed = 30
; first_layer_temperature = 0,0,0
; gcode_arcs = 0
; gcode_comments = 0
; gcode_flavor = reprap
; infill_acceleration = 0
; infill_first = 0
; layer_gcode = ;After layer change\n
; max_fan_speed = 100
; max_print_speed = 80
; max_volumetric_speed = 0
; min_fan_speed = 35
; min_print_speed = 10
; min_skirt_length = 0
; notes = 
; nozzle_diameter = 5,5,5
; only_retract_when_crossing_perimeters = 1
; ooze_prevention = 0
; output_filename_format = [input_filename_base].gcode
; perimeter_acceleration = 0
; post_process = 
; pressure_advance = 0
; resolution = 0
; retract_before_travel = 2,2,2
; retract_layer_change = 0,0,0
; retract_length = 0,0,0
; retract_length_toolchange = 0,0,0
; retract_lift = 0,0,0
; retract_restart_extra = 0,0,0
; retract_restart_extra_toolchange = 0,0,0
; retract_speed = 40,40,40
; skirt_distance = 6
; skirt_height = 1
; skirts = 1
; slowdown_below_layer_time = 5
; spiral_vase = 0
; standby_temperature_delta = -5
; start_gcode = G28 ; home all axes
; temperature = 0,0,0
; threads = 2
; toolchange_gcode = ;Tool change\n
; travel_speed = 100
; use_firmware_retraction = 0
; use_relative_e_distances = 0
; use_volumetric_e = 0
; vibration_limit = 0
; wipe = 0,0,0
; z_offset = 0
; dont_support_bridges = 1
; extrusion_width = 0
; first_layer_height = 1
; infill_only_where_needed = 0
; interface_shells = 0
; layer_height = 5
; raft_layers = 0
; seam_position = aligned
; support_material = 0
; support_material_angle = 0
; support_material_contact_distance = 0.2
; support_material_enforce_layers = 0
; support_material_extruder = 1
; support_material_extrusion_width = 0
; support_material_interface_extruder = 1
; support_material_interface_layers = 3
; support_material_interface_spacing = 0
; support_material_interface_speed = 100%
; support_material_pattern = pillars
; support_material_spacing = 2.5
; support_material_speed = 60
; support_material_threshold = 0
; xy_size_compensation = 0
; bottom_solid_layers = 1
; bridge_flow_ratio = 1
; bridge_speed = 60
; external_fill_pattern = rectilinear
; external_perimeter_extrusion_width = 0
; external_perimeter_speed = 50%
; external_perimeters_first = 0
; extra_perimeters = 1
; fill_angle = 45
; fill_density = 100%
; fill_pattern = rectilinear
; gap_fill_speed = 20
; infill_every_layers = 1
; infill_extruder = 1
; infill_extrusion_width = 0
; infill_overlap = 15%
; infill_speed = 100
; overhangs = 1
; perimeter_extruder = 1
; perimeter_extrusion_width = 0
; perimeter_speed = 100
; perimeters = 1
; small_perimeter_speed = 15
; solid_infill_below_area = 70
; solid_infill_every_layers = 0
; solid_infill_extruder = 1
; solid_infill_extrusion_width = 0
; solid_infill_speed = 20
; thin_walls = 1
; top_infill_extrusion_width = 0
; top_solid_infill_speed = 15
; top_solid_layers = 1
