; generated by Slic3r 1.2.9 on 2017-04-30 at 23:05:58

; external perimeters extrusion width = 5.00mm
; perimeters extrusion width = 5.25mm
; infill extrusion width = 5.25mm
; solid infill extrusion width = 5.25mm
; top infill extrusion width = 5.25mm

; external perimeters extrusion width = 5.00mm
; perimeters extrusion width = 5.25mm
; infill extrusion width = 5.25mm
; solid infill extrusion width = 5.25mm
; top infill extrusion width = 5.25mm

G28 ; home all axes
G21 ; set units to millimeters
G90 ; use absolute coordinates
M82 ; use absolute distances for extrusion
G92 E0
T0
G92 E0
;Before layer change

G1 Z1.000 F6000.000
;After layer change

G1 X85.552 Y83.610 F6000.000
G1 X87.795 Y82.533 E5.65499 F1800.000
G1 X89.686 Y82.221 E10.01280
G1 X116.330 Y81.146 E70.63057
G1 X136.644 Y81.139 E116.80905
G1 X139.100 Y81.537 E122.46404
G1 X141.305 Y82.688 E128.11902
G1 X143.034 Y84.477 E133.77401
G1 X144.111 Y86.719 E139.42900
G1 X144.430 Y88.925 E144.49432
G1 X144.430 Y108.925 E189.95912
G1 X144.032 Y111.380 E195.61410
G1 X142.880 Y113.585 E201.26909
G1 X141.092 Y115.314 E206.92407
G1 X138.849 Y116.391 E212.57906
G1 X136.958 Y116.704 E216.93687
G1 X110.000 Y117.785 E278.26833
G1 X90.000 Y117.785 E323.73312
G1 X87.544 Y117.388 E329.38811
G1 X85.339 Y116.236 E335.04310
G1 X83.610 Y114.448 E340.69808
G1 X82.533 Y112.205 E346.35307
G1 X82.215 Y110.000 E351.41840
G1 X82.215 Y90.000 E396.88319
G1 X82.612 Y87.544 E402.53817
G1 X83.764 Y85.339 E408.19316
G1 X85.013 Y84.132 E412.14321
G92 E0
;Tool change

T1
G92 E0
G1 X135.644 Y107.925 F6000.000
G1 X117.644 Y107.925 E40.91831 F1800.000
G1 X117.644 Y89.925 E81.83662
G1 X135.644 Y89.925 E122.75493
G1 X135.644 Y107.175 E161.96831
G1 X134.525 Y91.841 F6000.000
G1 X133.728 Y91.044 E164.73105 F1800.000
G1 X131.007 Y91.044 E171.39628
G1 X134.525 Y94.562 E183.58509
G1 X134.525 Y97.283 E190.25032
G1 X128.286 Y91.044 E211.86518
G1 X125.565 Y91.044 E218.53041
G1 X134.525 Y100.004 E249.57134
G1 X134.525 Y102.725 E256.23657
G1 X122.844 Y91.044 E296.70355
G1 X120.123 Y91.044 E303.36878
G1 X134.525 Y105.445 E353.26182
G1 X133.165 Y106.806 E357.97485
G1 X118.763 Y92.404 E407.86789
G1 X118.763 Y95.125 E414.53312
G1 X130.444 Y106.806 E455.00009
G1 X127.723 Y106.806 E461.66532
G1 X118.763 Y97.846 E492.70624
G1 X118.763 Y100.567 E499.37146
G1 X125.002 Y106.806 E520.98632
G1 X122.281 Y106.806 E527.65155
G1 X118.763 Y103.287 E539.84035
G1 X118.763 Y106.008 E546.50557
G1 X119.560 Y106.806 E549.26831
;Before layer change

G1 Z1.000 F6000.000
;After layer change

G92 E0
;Tool change

T0
G92 E0
G1 X109.000 Y109.000 F6000.000
G1 X91.000 Y109.000 E40.91831 F1800.000
G1 X91.000 Y91.000 E81.83662
G1 X109.000 Y91.000 E122.75493
G1 X109.000 Y108.250 E161.96831
G1 X107.881 Y92.916 F6000.000
G1 X107.084 Y92.119 E164.73105 F1800.000
G1 X104.363 Y92.119 E171.39628
G1 X107.881 Y95.637 E183.58509
G1 X107.881 Y98.358 E190.25032
G1 X101.642 Y92.119 E211.86518
G1 X98.921 Y92.119 E218.53041
G1 X107.881 Y101.079 E249.57134
G1 X107.881 Y103.800 E256.23657
G1 X96.200 Y92.119 E296.70355
G1 X93.479 Y92.119 E303.36878
G1 X107.881 Y106.521 E353.26182
G1 X106.521 Y107.881 E357.97485
G1 X92.119 Y93.479 E407.86789
G1 X92.119 Y96.200 E414.53312
G1 X103.800 Y107.881 E455.00009
G1 X101.079 Y107.881 E461.66532
G1 X92.119 Y98.921 E492.70624
G1 X92.119 Y101.642 E499.37146
G1 X98.358 Y107.881 E520.98632
G1 X95.637 Y107.881 E527.65155
G1 X92.119 Y104.363 E539.84035
G1 X92.119 Y107.084 E546.50557
G1 X92.916 Y107.881 E549.26831
;Before layer change

G1 Z6.000 F6000.000
;After layer change

G92 E0
;Tool change

T1
G92 E0
G1 X134.144 Y106.425 F6000.000
G1 X119.144 Y106.425 E375.00000 F3000.000
G1 X119.144 Y91.425 E750.00000
G1 X134.144 Y91.425 E1125.00000
G1 X134.144 Y105.675 E1481.25000
G1 X129.741 Y103.833 F6000.000
G1 X131.553 Y102.021 E1549.39789 F6000.000
G1 X131.533 Y94.036 E1761.74232
G1 X121.755 Y103.813 E2129.43746
G1 X121.735 Y95.828 E2341.78193
G1 X123.547 Y94.016 E2409.92966
;Before layer change

G1 Z6.000 F6000.000
;After layer change

G92 E0
;Tool change

T0
G92 E0
G1 X107.500 Y107.500 F6000.000
G1 X92.500 Y107.500 E375.00000 F3000.000
G1 X92.500 Y92.500 E750.00000
G1 X107.500 Y92.500 E1125.00000
G1 X107.500 Y106.750 E1481.25000
G1 X103.097 Y104.909 F6000.000
G1 X104.909 Y103.097 E1549.39789 F6000.000
G1 X104.889 Y95.111 E1761.74232
G1 X95.111 Y104.889 E2129.43746
G1 X95.091 Y96.903 E2341.78193
G1 X96.903 Y95.091 E2409.92966
;Before layer change

G1 Z11.000 F6000.000
;After layer change

G92 E0
;Tool change

T1
G92 E0
G1 X134.144 Y106.425 F6000.000
G1 X119.144 Y106.425 E375.00000 F3000.000
G1 X119.144 Y91.425 E750.00000
G1 X134.144 Y91.425 E1125.00000
G1 X134.144 Y105.675 E1481.25000
G1 X131.553 Y95.828 F6000.000
G1 X129.741 Y94.016 E1549.39787 F6000.000
G1 X121.755 Y94.036 E1761.74230
G1 X131.533 Y103.813 E2129.43746
G1 X123.547 Y103.833 E2341.78193
G1 X121.735 Y102.021 E2409.92968
;Before layer change

G1 Z11.000 F6000.000
;After layer change

G92 E0
;Tool change

T0
G92 E0
G1 X107.500 Y107.500 F6000.000
G1 X92.500 Y107.500 E375.00000 F3000.000
G1 X92.500 Y92.500 E750.00000
G1 X107.500 Y92.500 E1125.00000
G1 X107.500 Y106.750 E1481.25000
G1 X104.909 Y96.903 F6000.000
G1 X103.097 Y95.091 E1549.39787 F6000.000
G1 X95.111 Y95.111 E1761.74230
G1 X104.889 Y104.889 E2129.43746
G1 X96.903 Y104.909 E2341.78193
G1 X95.091 Y103.097 E2409.92968
;Before layer change

G1 Z16.000 F6000.000
;After layer change

G92 E0
;Tool change

T1
G92 E0
G1 X134.144 Y106.425 F6000.000
G1 X119.144 Y106.425 E375.00000 F3000.000
G1 X119.144 Y91.425 E750.00000
G1 X134.144 Y91.425 E1125.00000
G1 X134.144 Y105.675 E1481.25000
G1 X129.741 Y103.833 F6000.000
G1 X131.553 Y102.021 E1549.39789 F6000.000
G1 X131.533 Y94.036 E1761.74232
G1 X121.755 Y103.813 E2129.43746
G1 X121.735 Y95.828 E2341.78193
G1 X123.547 Y94.016 E2409.92966
;Before layer change

G1 Z16.000 F6000.000
;After layer change

G92 E0
;Tool change

T0
G92 E0
G1 X107.500 Y107.500 F6000.000
G1 X92.500 Y107.500 E375.00000 F3000.000
G1 X92.500 Y92.500 E750.00000
G1 X107.500 Y92.500 E1125.00000
G1 X107.500 Y106.750 E1481.25000
G1 X103.097 Y104.909 F6000.000
G1 X104.909 Y103.097 E1549.39789 F6000.000
G1 X104.889 Y95.111 E1761.74232
G1 X95.111 Y104.889 E2129.43746
G1 X95.091 Y96.903 E2341.78193
G1 X96.903 Y95.091 E2409.92966
;Before layer change

G1 Z21.000 F6000.000
;After layer change

G92 E0
;Tool change

T1
G92 E0
G1 X134.144 Y106.425 F6000.000
G1 X119.144 Y106.425 E375.00000 F3000.000
G1 X119.144 Y91.425 E750.00000
G1 X134.144 Y91.425 E1125.00000
G1 X134.144 Y105.675 E1481.25000
G92 E0
G1 X131.553 Y95.828 F6000.000
G1 X129.741 Y94.016 E92.35433 F900.000
G1 X121.755 Y94.036 E380.12518
G1 X131.533 Y103.813 E878.42832
G1 X123.547 Y103.833 E1166.19924
G1 X121.735 Y102.021 E1258.55337
;Before layer change

G1 Z21.000 F6000.000
;After layer change

G92 E0
;Tool change

T0
G92 E0
G1 X107.500 Y107.500 F6000.000
G1 X92.500 Y107.500 E375.00000 F3000.000
G1 X92.500 Y92.500 E750.00000
G1 X107.500 Y92.500 E1125.00000
G1 X107.500 Y106.750 E1481.25000
G92 E0
G1 X104.909 Y96.903 F6000.000
G1 X103.097 Y95.091 E92.35433 F900.000
G1 X95.111 Y95.111 E380.12518
G1 X104.889 Y104.889 E878.42832
G1 X96.903 Y104.909 E1166.19924
G1 X95.091 Y103.097 E1258.55337
G92 E0
M104 S0 ; turn off temperature
G28 X0  ; home X axis
M84     ; disable motors

; filament used = 10931.0mm (8.6cm3)
; filament used = 10518.9mm (8.3cm3)

; avoid_crossing_perimeters = 0
; bed_shape = 0x0,200x0,200x200,0x200
; bed_temperature = 0
; before_layer_gcode = ;Before layer change\n
; bridge_acceleration = 0
; bridge_fan_speed = 0
; brim_width = 0
; complete_objects = 0
; cooling = 0
; default_acceleration = 0
; disable_fan_first_layers = 3
; duplicate_distance = 6
; end_gcode = M104 S0 ; turn off temperature\nG28 X0  ; home X axis\nM84     ; disable motors\n
; extruder_clearance_height = 20
; extruder_clearance_radius = 20
; extruder_offset = 0x0,0x0,0x0
; extrusion_axis = E
; extrusion_multiplier = 1,1,1
; fan_always_on = 0
; fan_below_layer_time = 60
; filament_colour = #FFFFFF;#FFFFFF;#FFFFFF
; filament_diameter = 1,1,1
; first_layer_acceleration = 0
; first_layer_bed_temperature = 0
; first_layer_extrusion_width = 200%
; first_layer_speed = 30
; first_layer_temperature = 0,0,0
; gcode_arcs = 0
; gcode_comments = 0
; gcode_flavor = reprap
; infill_acceleration = 0
; infill_first = 0
; layer_gcode = ;After layer change\n
; max_fan_speed = 100
; max_print_speed = 80
; max_volumetric_speed = 0
; min_fan_speed = 35
; min_print_speed = 10
; min_skirt_length = 0
; notes = 
; nozzle_diameter = 5,5,5
; only_retract_when_crossing_perimeters = 1
; ooze_prevention = 0
; output_filename_format = [input_filename_base].gcode
; perimeter_acceleration = 0
; post_process = 
; pressure_advance = 0
; resolution = 0
; retract_before_travel = 2,2,2
; retract_layer_change = 0,0,0
; retract_length = 0,0,0
; retract_length_toolchange = 0,0,0
; retract_lift = 0,0,0
; retract_restart_extra = 0,0,0
; retract_restart_extra_toolchange = 0,0,0
; retract_speed = 40,40,40
; skirt_distance = 6
; skirt_height = 1
; skirts = 1
; slowdown_below_layer_time = 5
; spiral_vase = 0
; standby_temperature_delta = -5
; start_gcode = G28 ; home all axes
; temperature = 0,0,0
; threads = 2
; toolchange_gcode = ;Tool change\n
; travel_speed = 100
; use_firmware_retraction = 0
; use_relative_e_distances = 0
; use_volumetric_e = 0
; vibration_limit = 0
; wipe = 0,0,0
; z_offset = 0
; dont_support_bridges = 1
; extrusion_width = 0
; first_layer_height = 1
; infill_only_where_needed = 0
; interface_shells = 0
; layer_height = 5
; raft_layers = 0
; seam_position = aligned
; support_material = 0
; support_material_angle = 0
; support_material_contact_distance = 0.2
; support_material_enforce_layers = 0
; support_material_extruder = 1
; support_material_extrusion_width = 0
; support_material_interface_extruder = 1
; support_material_interface_layers = 3
; support_material_interface_spacing = 0
; support_material_interface_speed = 100%
; support_material_pattern = pillars
; support_material_spacing = 2.5
; support_material_speed = 60
; support_material_threshold = 0
; xy_size_compensation = 0
; bottom_solid_layers = 1
; bridge_flow_ratio = 1
; bridge_speed = 60
; external_fill_pattern = rectilinear
; external_perimeter_extrusion_width = 0
; external_perimeter_speed = 50%
; external_perimeters_first = 0
; extra_perimeters = 1
; fill_angle = 45
; fill_density = 100%
; fill_pattern = rectilinear
; gap_fill_speed = 20
; infill_every_layers = 1
; infill_extruder = 1
; infill_extrusion_width = 0
; infill_overlap = 15%
; infill_speed = 100
; overhangs = 1
; perimeter_extruder = 1
; perimeter_extrusion_width = 0
; perimeter_speed = 100
; perimeters = 1
; small_perimeter_speed = 15
; solid_infill_below_area = 70
; solid_infill_every_layers = 0
; solid_infill_extruder = 1
; solid_infill_extrusion_width = 0
; solid_infill_speed = 20
; thin_walls = 1
; top_infill_extrusion_width = 0
; top_solid_infill_speed = 15
; top_solid_layers = 1
