; generated by Slic3r 1.2.9 on 2017-04-30 at 23:06:13

; external perimeters extrusion width = 5.00mm
; perimeters extrusion width = 5.25mm
; infill extrusion width = 5.25mm
; solid infill extrusion width = 5.25mm
; top infill extrusion width = 5.25mm

; external perimeters extrusion width = 5.00mm
; perimeters extrusion width = 5.25mm
; infill extrusion width = 5.25mm
; solid infill extrusion width = 5.25mm
; top infill extrusion width = 5.25mm

G28 ; home all axes
G21 ; set units to millimeters
G90 ; use absolute coordinates
M82 ; use absolute distances for extrusion
G92 E0
T0
G92 E0
;Before layer change

G1 Z1.000 F6000.000
;After layer change

G1 X78.305 Y52.403 F6000.000
G1 X80.166 Y50.751 E5.65499 F1800.000
G1 X82.452 Y49.771 E11.30997
G1 X84.339 Y49.539 E15.63143
G1 X104.339 Y49.539 E61.09622
G1 X106.794 Y49.936 E66.75121
G1 X108.568 Y50.788 E71.22531 F1800.000
G1 X131.986 Y65.943 E134.63474
G1 X133.832 Y67.611 E140.28972
G1 X135.057 Y69.776 E145.94471
G1 X135.542 Y72.479 E152.18788
G1 X135.542 Y92.479 E197.65267
G1 X135.144 Y94.935 E203.30766
G1 X133.175 Y98.069 E211.72214
G1 X108.082 Y122.394 E291.16668
G1 X106.042 Y123.818 E296.82166
G1 X102.663 Y124.589 E304.70070
G1 X82.663 Y124.589 E350.16549
G1 X80.208 Y124.192 E355.82048
G1 X78.003 Y123.040 E361.47546
G1 X76.274 Y121.252 E367.13045
G1 X75.197 Y119.009 E372.78543
G1 X74.878 Y116.804 E377.85076
G1 X74.885 Y96.474 E424.06584
G1 X76.560 Y56.994 E513.89364
G1 X77.061 Y54.557 E519.54862
G1 X77.930 Y53.053 E523.49868
G92 E0
;Tool change

T1
G92 E0
G1 X126.756 Y91.479 F6000.000
G1 X108.756 Y91.479 E40.91831 F1800.000
G1 X108.756 Y73.479 E81.83662
G1 X126.756 Y73.479 E122.75493
G1 X126.756 Y90.729 E161.96831
G1 X125.637 Y75.395 F6000.000
G1 X124.840 Y74.598 E164.73105 F1800.000
G1 X122.119 Y74.598 E171.39628
G1 X125.637 Y78.116 E183.58509
G1 X125.637 Y80.837 E190.25032
G1 X119.398 Y74.598 E211.86518
G1 X116.677 Y74.598 E218.53041
G1 X125.637 Y83.558 E249.57134
G1 X125.637 Y86.279 E256.23657
G1 X113.956 Y74.598 E296.70355
G1 X111.235 Y74.598 E303.36878
G1 X125.637 Y89.000 E353.26182
G1 X124.277 Y90.360 E357.97485
G1 X109.875 Y75.958 E407.86789
G1 X109.875 Y78.679 E414.53312
G1 X121.556 Y90.360 E455.00009
G1 X118.835 Y90.360 E461.66532
G1 X109.875 Y81.400 E492.70624
G1 X109.875 Y84.121 E499.37146
G1 X116.114 Y90.360 E520.98632
G1 X113.393 Y90.360 E527.65155
G1 X109.875 Y86.842 E539.84035
G1 X109.875 Y89.563 E546.50557
G1 X110.673 Y90.360 E549.26831
;Before layer change

G1 Z1.000 F6000.000
;After layer change

G92 E0
;Tool change

T0
G92 E0
G1 X103.339 Y76.324 F6000.000
G1 X85.339 Y76.324 E40.91831 F1800.000
G1 X85.339 Y58.324 E81.83662
G1 X103.339 Y58.324 E122.75493
G1 X103.339 Y75.574 E161.96831
G1 X102.220 Y60.240 F6000.000
G1 X101.422 Y59.443 E164.73105 F1800.000
G1 X98.701 Y59.443 E171.39628
G1 X102.220 Y62.961 E183.58509
G1 X102.220 Y65.682 E190.25032
G1 X95.980 Y59.443 E211.86518
G1 X93.260 Y59.443 E218.53041
G1 X102.220 Y68.403 E249.57134
G1 X102.220 Y71.124 E256.23657
G1 X90.539 Y59.443 E296.70355
G1 X87.818 Y59.443 E303.36878
G1 X102.220 Y73.845 E353.26182
G1 X100.859 Y75.205 E357.97485
G1 X86.457 Y60.803 E407.86789
G1 X86.457 Y63.524 E414.53312
G1 X98.138 Y75.205 E455.00009
G1 X95.417 Y75.205 E461.66532
G1 X86.457 Y66.245 E492.70624
G1 X86.457 Y68.966 E499.37146
G1 X92.697 Y75.205 E520.98632
G1 X89.976 Y75.205 E527.65155
G1 X86.457 Y71.687 E539.84035
G1 X86.457 Y74.408 E546.50557
G1 X87.255 Y75.205 E549.26831
;Before layer change

G1 Z1.000 F6000.000
;After layer change

G92 E0
G1 X83.663 Y97.804 F6000.000
G1 X101.663 Y97.804 E40.91831 F1800.000
G1 X101.663 Y115.804 E81.83662
G1 X83.663 Y115.804 E122.75493
G1 X83.663 Y98.554 E161.96831
G1 X85.580 Y114.685 F6000.000
G1 X84.782 Y113.887 E164.73104 F1800.000
G1 X84.782 Y111.167 E171.39627
G1 X88.301 Y114.685 E183.58507
G1 X91.021 Y114.685 E190.25030
G1 X84.782 Y108.446 E211.86515
G1 X84.782 Y105.725 E218.53038
G1 X93.742 Y114.685 E249.57130
G1 X96.463 Y114.685 E256.23653
G1 X84.782 Y103.004 E296.70350
G1 X84.782 Y100.283 E303.36873
G1 X99.184 Y114.685 E353.26177
G1 X100.544 Y113.324 E357.97480
G1 X86.143 Y98.923 E407.86784
G1 X88.863 Y98.923 E414.53307
G1 X100.544 Y110.604 E455.00005
G1 X100.544 Y107.883 E461.66528
G1 X91.584 Y98.923 E492.70621
G1 X94.305 Y98.923 E499.37144
G1 X100.544 Y105.162 E520.98630
G1 X100.544 Y102.441 E527.65153
G1 X97.026 Y98.923 E539.84033
G1 X99.747 Y98.923 E546.50557
G1 X100.544 Y99.720 E549.26831
;Before layer change

G1 Z6.000 F6000.000
;After layer change

G92 E0
;Tool change

T1
G92 E0
G1 X125.256 Y89.979 F6000.000
G1 X110.256 Y89.979 E375.00000 F3000.000
G1 X110.256 Y74.979 E750.00000
G1 X125.256 Y74.979 E1125.00000
G1 X125.256 Y89.229 E1481.25000
G1 X120.853 Y87.388 F6000.000
G1 X122.665 Y85.576 E1549.39789 F6000.000
G1 X122.645 Y77.590 E1761.74232
G1 X112.867 Y87.368 E2129.43746
G1 X112.847 Y79.382 E2341.78193
G1 X114.660 Y77.570 E2409.92966
;Before layer change

G1 Z6.000 F6000.000
;After layer change

G92 E0
;Tool change

T0
G92 E0
G1 X101.839 Y74.824 F6000.000
G1 X86.839 Y74.824 E375.00000 F3000.000
G1 X86.839 Y59.824 E750.00000
G1 X101.839 Y59.824 E1125.00000
G1 X101.839 Y74.074 E1481.25000
G1 X97.435 Y72.233 F6000.000
G1 X99.247 Y70.421 E1549.39789 F6000.000
G1 X99.227 Y62.435 E1761.74232
G1 X89.450 Y72.213 E2129.43746
G1 X89.430 Y64.227 E2341.78193
G1 X91.242 Y62.415 E2409.92966
;Before layer change

G1 Z6.000 F6000.000
;After layer change

G92 E0
G1 X85.163 Y99.304 F6000.000
G1 X100.163 Y99.304 E375.00000 F3000.000
G1 X100.163 Y114.304 E750.00000
G1 X85.163 Y114.304 E1125.00000
G1 X85.163 Y100.054 E1481.25000
G1 X89.567 Y101.895 F6000.000
G1 X87.755 Y103.707 E1549.39772 F6000.000
G1 X87.775 Y111.693 E1761.74220
G1 X97.552 Y101.915 E2129.43734
G1 X97.572 Y109.900 E2341.78177
G1 X95.760 Y111.713 E2409.92966
;Before layer change

G1 Z11.000 F6000.000
;After layer change

G92 E0
;Tool change

T1
G92 E0
G1 X125.256 Y89.979 F6000.000
G1 X110.256 Y89.979 E375.00000 F3000.000
G1 X110.256 Y74.979 E750.00000
G1 X125.256 Y74.979 E1125.00000
G1 X125.256 Y89.229 E1481.25000
G1 X122.665 Y79.382 F6000.000
G1 X120.853 Y77.570 E1549.39787 F6000.000
G1 X112.867 Y77.590 E1761.74230
G1 X122.645 Y87.368 E2129.43746
G1 X114.660 Y87.388 E2341.78193
G1 X112.847 Y85.576 E2409.92968
;Before layer change

G1 Z11.000 F6000.000
;After layer change

G92 E0
;Tool change

T0
G92 E0
G1 X101.839 Y74.824 F6000.000
G1 X86.839 Y74.824 E375.00000 F3000.000
G1 X86.839 Y59.824 E750.00000
G1 X101.839 Y59.824 E1125.00000
G1 X101.839 Y74.074 E1481.25000
G1 X99.247 Y64.227 F6000.000
G1 X97.435 Y62.415 E1549.39787 F6000.000
G1 X89.450 Y62.435 E1761.74230
G1 X99.227 Y72.213 E2129.43746
G1 X91.242 Y72.233 E2341.78193
G1 X89.430 Y70.421 E2409.92968
;Before layer change

G1 Z11.000 F6000.000
;After layer change

G92 E0
G1 X85.163 Y99.304 F6000.000
G1 X100.163 Y99.304 E375.00000 F3000.000
G1 X100.163 Y114.304 E750.00000
G1 X85.163 Y114.304 E1125.00000
G1 X85.163 Y100.054 E1481.25000
G1 X87.755 Y109.900 F6000.000
G1 X89.567 Y111.713 E1549.39774 F6000.000
G1 X97.552 Y111.693 E1761.74222
G1 X87.775 Y101.915 E2129.43738
G1 X95.760 Y101.895 E2341.78180
G1 X97.572 Y103.707 E2409.92968
;Before layer change

G1 Z16.000 F6000.000
;After layer change

G92 E0
;Tool change

T1
G92 E0
G1 X125.256 Y89.979 F6000.000
G1 X110.256 Y89.979 E375.00000 F3000.000
G1 X110.256 Y74.979 E750.00000
G1 X125.256 Y74.979 E1125.00000
G1 X125.256 Y89.229 E1481.25000
G1 X120.853 Y87.388 F6000.000
G1 X122.665 Y85.576 E1549.39789 F6000.000
G1 X122.645 Y77.590 E1761.74232
G1 X112.867 Y87.368 E2129.43746
G1 X112.847 Y79.382 E2341.78193
G1 X114.660 Y77.570 E2409.92966
;Before layer change

G1 Z16.000 F6000.000
;After layer change

G92 E0
;Tool change

T0
G92 E0
G1 X101.839 Y74.824 F6000.000
G1 X86.839 Y74.824 E375.00000 F3000.000
G1 X86.839 Y59.824 E750.00000
G1 X101.839 Y59.824 E1125.00000
G1 X101.839 Y74.074 E1481.25000
G1 X97.435 Y72.233 F6000.000
G1 X99.247 Y70.421 E1549.39789 F6000.000
G1 X99.227 Y62.435 E1761.74232
G1 X89.450 Y72.213 E2129.43746
G1 X89.430 Y64.227 E2341.78193
G1 X91.242 Y62.415 E2409.92966
;Before layer change

G1 Z16.000 F6000.000
;After layer change

G92 E0
G1 X85.163 Y99.304 F6000.000
G1 X100.163 Y99.304 E375.00000 F3000.000
G1 X100.163 Y114.304 E750.00000
G1 X85.163 Y114.304 E1125.00000
G1 X85.163 Y100.054 E1481.25000
G1 X89.567 Y101.895 F6000.000
G1 X87.755 Y103.707 E1549.39772 F6000.000
G1 X87.775 Y111.693 E1761.74220
G1 X97.552 Y101.915 E2129.43734
G1 X97.572 Y109.900 E2341.78177
G1 X95.760 Y111.713 E2409.92966
;Before layer change

G1 Z21.000 F6000.000
;After layer change

G92 E0
;Tool change

T1
G92 E0
G1 X125.256 Y89.979 F6000.000
G1 X110.256 Y89.979 E375.00000 F3000.000
G1 X110.256 Y74.979 E750.00000
G1 X125.256 Y74.979 E1125.00000
G1 X125.256 Y89.229 E1481.25000
G92 E0
G1 X122.665 Y79.382 F6000.000
G1 X120.853 Y77.570 E92.35433 F900.000
G1 X112.867 Y77.590 E380.12518
G1 X122.645 Y87.368 E878.42832
G1 X114.660 Y87.388 E1166.19924
G1 X112.847 Y85.576 E1258.55337
;Before layer change

G1 Z21.000 F6000.000
;After layer change

G92 E0
;Tool change

T0
G92 E0
G1 X101.839 Y74.824 F6000.000
G1 X86.839 Y74.824 E375.00000 F3000.000
G1 X86.839 Y59.824 E750.00000
G1 X101.839 Y59.824 E1125.00000
G1 X101.839 Y74.074 E1481.25000
G92 E0
G1 X99.247 Y64.227 F6000.000
G1 X97.435 Y62.415 E92.35433 F900.000
G1 X89.450 Y62.435 E380.12518
G1 X99.227 Y72.213 E878.42832
G1 X91.242 Y72.233 E1166.19924
G1 X89.430 Y70.421 E1258.55337
;Before layer change

G1 Z21.000 F6000.000
;After layer change

G92 E0
G1 X85.163 Y99.304 F6000.000
G1 X100.163 Y99.304 E375.00000 F3000.000
G1 X100.163 Y114.304 E750.00000
G1 X85.163 Y114.304 E1125.00000
G1 X85.163 Y100.054 E1481.25000
G92 E0
G1 X87.755 Y109.900 F6000.000
G1 X89.567 Y111.713 E92.35413 F900.000
G1 X97.552 Y111.693 E380.12505
G1 X87.775 Y101.915 E878.42819
G1 X95.760 Y101.895 E1166.19903
G1 X97.572 Y103.707 E1258.55337
G92 E0
M104 S0 ; turn off temperature
G28 X0  ; home X axis
M84     ; disable motors

; filament used = 21561.2mm (16.9cm3)
; filament used = 10518.9mm (8.3cm3)

; avoid_crossing_perimeters = 0
; bed_shape = 0x0,200x0,200x200,0x200
; bed_temperature = 0
; before_layer_gcode = ;Before layer change\n
; bridge_acceleration = 0
; bridge_fan_speed = 0
; brim_width = 0
; complete_objects = 0
; cooling = 0
; default_acceleration = 0
; disable_fan_first_layers = 3
; duplicate_distance = 6
; end_gcode = M104 S0 ; turn off temperature\nG28 X0  ; home X axis\nM84     ; disable motors\n
; extruder_clearance_height = 20
; extruder_clearance_radius = 20
; extruder_offset = 0x0,0x0,0x0
; extrusion_axis = E
; extrusion_multiplier = 1,1,1
; fan_always_on = 0
; fan_below_layer_time = 60
; filament_colour = #FFFFFF;#FFFFFF;#FFFFFF
; filament_diameter = 1,1,1
; first_layer_acceleration = 0
; first_layer_bed_temperature = 0
; first_layer_extrusion_width = 200%
; first_layer_speed = 30
; first_layer_temperature = 0,0,0
; gcode_arcs = 0
; gcode_comments = 0
; gcode_flavor = reprap
; infill_acceleration = 0
; infill_first = 0
; layer_gcode = ;After layer change\n
; max_fan_speed = 100
; max_print_speed = 80
; max_volumetric_speed = 0
; min_fan_speed = 35
; min_print_speed = 10
; min_skirt_length = 0
; notes = 
; nozzle_diameter = 5,5,5
; only_retract_when_crossing_perimeters = 1
; ooze_prevention = 0
; output_filename_format = [input_filename_base].gcode
; perimeter_acceleration = 0
; post_process = 
; pressure_advance = 0
; resolution = 0
; retract_before_travel = 2,2,2
; retract_layer_change = 0,0,0
; retract_length = 0,0,0
; retract_length_toolchange = 0,0,0
; retract_lift = 0,0,0
; retract_restart_extra = 0,0,0
; retract_restart_extra_toolchange = 0,0,0
; retract_speed = 40,40,40
; skirt_distance = 6
; skirt_height = 1
; skirts = 1
; slowdown_below_layer_time = 5
; spiral_vase = 0
; standby_temperature_delta = -5
; start_gcode = G28 ; home all axes
; temperature = 0,0,0
; threads = 2
; toolchange_gcode = ;Tool change\n
; travel_speed = 100
; use_firmware_retraction = 0
; use_relative_e_distances = 0
; use_volumetric_e = 0
; vibration_limit = 0
; wipe = 0,0,0
; z_offset = 0
; dont_support_bridges = 1
; extrusion_width = 0
; first_layer_height = 1
; infill_only_where_needed = 0
; interface_shells = 0
; layer_height = 5
; raft_layers = 0
; seam_position = aligned
; support_material = 0
; support_material_angle = 0
; support_material_contact_distance = 0.2
; support_material_enforce_layers = 0
; support_material_extruder = 1
; support_material_extrusion_width = 0
; support_material_interface_extruder = 1
; support_material_interface_layers = 3
; support_material_interface_spacing = 0
; support_material_interface_speed = 100%
; support_material_pattern = pillars
; support_material_spacing = 2.5
; support_material_speed = 60
; support_material_threshold = 0
; xy_size_compensation = 0
; bottom_solid_layers = 1
; bridge_flow_ratio = 1
; bridge_speed = 60
; external_fill_pattern = rectilinear
; external_perimeter_extrusion_width = 0
; external_perimeter_speed = 50%
; external_perimeters_first = 0
; extra_perimeters = 1
; fill_angle = 45
; fill_density = 100%
; fill_pattern = rectilinear
; gap_fill_speed = 20
; infill_every_layers = 1
; infill_extruder = 1
; infill_extrusion_width = 0
; infill_overlap = 15%
; infill_speed = 100
; overhangs = 1
; perimeter_extruder = 1
; perimeter_extrusion_width = 0
; perimeter_speed = 100
; perimeters = 1
; small_perimeter_speed = 15
; solid_infill_below_area = 70
; solid_infill_every_layers = 0
; solid_infill_extruder = 1
; solid_infill_extrusion_width = 0
; solid_infill_speed = 20
; thin_walls = 1
; top_infill_extrusion_width = 0
; top_solid_infill_speed = 15
; top_solid_layers = 1
