; generated by Slic3r 1.2.9 on 2017-04-15 at 17:10:19

; external perimeters extrusion width = 0.50mm
; perimeters extrusion width = 0.72mm
; infill extrusion width = 0.72mm
; solid infill extrusion width = 0.72mm
; top infill extrusion width = 0.72mm

M107
M104 S200 ; set temperature
G28 ; home all axes
G1 Z5 F5000 ; lift nozzle

M109 S200 ; wait for temperature to be reached
G21 ; set units to millimeters
G90 ; use absolute coordinates
M82 ; use absolute distances for extrusion
G92 E0
G1 Z0.350 F7800.000
G1 E-2.00000 F2400.00000
G92 E0
G1 X89.915 Y90.753 F7800.000
G1 E2.00000 F2400.00000
G1 X91.668 Y89.274 E2.07096 F1800.000
G1 X93.820 Y88.481 E2.14192
G1 X95.000 Y88.375 E2.17858
G1 X105.000 Y88.375 E2.48799
G1 X107.259 Y88.772 E2.55895
G1 X109.247 Y89.915 E2.62991 F1800.000
G1 X110.726 Y91.668 E2.70088
G1 X111.519 Y93.820 E2.77184
G1 X111.625 Y95.000 E2.80849
G1 X111.625 Y105.000 E3.11790
G1 X111.228 Y107.259 E3.18886
G1 X110.085 Y109.247 E3.25983
G1 X108.332 Y110.726 E3.33079
G1 X106.180 Y111.519 E3.40175
G1 X105.000 Y111.625 E3.43840
G1 X95.000 Y111.625 E3.74782
G1 X92.741 Y111.228 E3.81878
G1 X90.753 Y110.085 E3.88974
G1 X89.274 Y108.332 E3.96070
G1 X88.481 Y106.180 E4.03167
G1 X88.375 Y105.000 E4.06832
G1 X88.375 Y95.000 E4.37773
G1 X88.772 Y92.741 E4.44869
G1 X89.878 Y90.818 E4.51733
G1 E2.51733 F2400.00000
G92 E0
G1 X103.400 Y103.400 F7800.000
G1 E2.00000 F2400.00000
G1 X96.600 Y103.400 E2.21041 F1800.000
G1 X96.600 Y96.600 E2.42083
G1 X103.400 Y96.600 E2.63124
G1 X103.400 Y103.325 E2.83934
G1 X104.025 Y104.025 F7800.000
G1 X95.975 Y104.025 E3.08842 F1800.000
G1 X95.975 Y95.975 E3.33751
G1 X104.025 Y95.975 E3.58659
G1 X104.025 Y103.950 E3.83336
G1 X104.650 Y104.650 F7800.000
G1 X95.350 Y104.650 E4.12111 F1800.000
G1 X95.350 Y95.350 E4.40886
G1 X104.650 Y95.350 E4.69662
G1 X104.650 Y104.575 E4.98205
G1 X104.217 Y104.400 F7800.000
G1 X103.022 Y97.283 F7800.000
G1 X102.717 Y96.978 E4.99650 F1800.000
G1 X101.760 Y96.978 E5.02852
G1 X103.022 Y98.240 E5.08826
G1 X103.022 Y99.196 E5.12028
G1 X100.804 Y96.978 E5.22531
G1 X99.847 Y96.978 E5.25733
G1 X103.022 Y100.153 E5.40764
G1 X103.022 Y101.109 E5.43967
G1 X98.891 Y96.978 E5.63527
G1 X97.935 Y96.978 E5.66729
G1 X103.022 Y102.065 E5.90818
G1 X103.002 Y103.002 E5.93954
G1 X96.998 Y96.998 E6.22382
G1 X96.978 Y97.935 E6.25518
G1 X102.065 Y103.022 E6.49607
G1 X101.109 Y103.022 E6.52809
G1 X96.978 Y98.891 E6.72369
G1 X96.978 Y99.847 E6.75571
G1 X100.153 Y103.022 E6.90602
G1 X99.196 Y103.022 E6.93805
G1 X96.978 Y100.804 E7.04307
G1 X96.978 Y101.760 E7.07509
G1 X98.240 Y103.022 E7.13483
G1 X97.283 Y103.022 E7.16685
G1 X96.978 Y102.717 E7.18130
G1 Z0.650 F7800.000
G1 X103.550 Y103.550 F7800.000
G1 X96.450 Y103.550 E7.37855 F900.000
G1 X96.450 Y96.450 E7.57580
G1 X103.550 Y96.450 E7.77304
G1 X103.550 Y103.475 E7.96821
G1 X104.205 Y104.205 F7800.000
G1 X95.795 Y104.205 E8.20181 F900.000
G1 X95.795 Y95.795 E8.43542
G1 X104.205 Y95.795 E8.66903
G1 X104.205 Y104.130 E8.90055
G1 X104.750 Y104.750 F7800.000
G1 X95.250 Y104.750 E9.07619 F900.000
G1 X95.250 Y95.250 E9.25183
G1 X104.750 Y95.250 E9.42747
G1 X104.750 Y104.675 E9.60172
G1 X104.317 Y104.500 F7800.000
G1 X102.835 Y103.153 F7800.000
G1 X103.153 Y102.835 E9.61518 F1200.000
G1 X103.153 Y101.837 E9.64507
G1 X101.837 Y103.153 E9.70080
G1 X100.839 Y103.153 E9.73070
G1 X103.153 Y100.839 E9.82870
G1 X103.153 Y99.841 E9.85860
G1 X99.841 Y103.153 E9.99888
G1 X98.843 Y103.153 E10.02878
G1 X103.153 Y98.843 E10.21133
G1 X103.153 Y97.845 E10.24123
G1 X97.845 Y103.153 E10.46606
G1 X96.867 Y103.133 E10.49536
G1 X103.133 Y96.867 E10.76078
G1 X102.155 Y96.847 E10.79008
G1 X96.847 Y102.155 E11.01492
G1 X96.847 Y101.157 E11.04481
G1 X101.157 Y96.847 E11.22737
G1 X100.159 Y96.847 E11.25726
G1 X96.847 Y100.159 E11.39754
G1 X96.847 Y99.161 E11.42744
G1 X99.161 Y96.847 E11.52545
G1 X98.163 Y96.847 E11.55534
G1 X96.847 Y98.163 E11.61107
G1 X96.847 Y97.165 E11.64096
G1 X97.165 Y96.847 E11.65442
G1 Z0.950 F7800.000
G1 X103.550 Y103.550 F7800.000
G1 X96.450 Y103.550 E11.85167 F900.000
G1 X96.450 Y96.450 E12.04891
G1 X103.550 Y96.450 E12.24616
G1 X103.550 Y103.475 E12.44132
G1 X104.205 Y104.205 F7800.000
G1 X95.795 Y104.205 E12.67493 F900.000
G1 X95.795 Y95.795 E12.90854
G1 X104.205 Y95.795 E13.14215
G1 X104.205 Y104.130 E13.37367
G1 X104.750 Y104.750 F7800.000
G1 X95.250 Y104.750 E13.54931 F900.000
G1 X95.250 Y95.250 E13.72495
G1 X104.750 Y95.250 E13.90059
G1 X104.750 Y104.675 E14.07484
G1 X104.317 Y104.500 F7800.000
G1 X103.153 Y97.165 F7800.000
G1 X102.835 Y96.847 E14.08830 F1200.000
G1 X101.837 Y96.847 E14.11819
G1 X103.153 Y98.163 E14.17392
G1 X103.153 Y99.161 E14.20382
G1 X100.839 Y96.847 E14.30182
G1 X99.841 Y96.847 E14.33172
G1 X103.153 Y100.159 E14.47200
G1 X103.153 Y101.157 E14.50189
G1 X98.843 Y96.847 E14.68445
G1 X97.845 Y96.847 E14.71435
G1 X103.153 Y102.155 E14.93918
G1 X103.133 Y103.133 E14.96848
G1 X96.867 Y96.867 E15.23390
G1 X96.847 Y97.845 E15.26320
G1 X102.155 Y103.153 E15.48803
G1 X101.157 Y103.153 E15.51793
G1 X96.847 Y98.843 E15.70049
G1 X96.847 Y99.841 E15.73038
G1 X100.159 Y103.153 E15.87066
G1 X99.161 Y103.153 E15.90056
G1 X96.847 Y100.839 E15.99856
G1 X96.847 Y101.837 E16.02846
G1 X98.163 Y103.153 E16.08419
G1 X97.165 Y103.153 E16.11408
G1 X96.847 Y102.835 E16.12754
M106 S237.15
G1 Z1.250 F7800.000
G1 X103.550 Y103.550 F7800.000
G1 X96.450 Y103.550 E16.32479 F900.000
G1 X96.450 Y96.450 E16.52203
G1 X103.550 Y96.450 E16.71928
G1 X103.550 Y103.475 E16.91444
G1 X104.205 Y104.205 F7800.000
G1 X95.795 Y104.205 E17.14805 F900.000
G1 X95.795 Y95.795 E17.38166
G1 X104.205 Y95.795 E17.61527
G1 X104.205 Y104.130 E17.84679
G1 X104.750 Y104.750 F7800.000
G1 X95.250 Y104.750 E18.02243 F900.000
G1 X95.250 Y95.250 E18.19807
G1 X104.750 Y95.250 E18.37371
G1 X104.750 Y104.675 E18.54796
G1 X104.317 Y104.500 F7800.000
G1 X102.835 Y103.153 F7800.000
G1 X103.153 Y102.835 E18.56142 F1200.000
G1 X103.153 Y101.837 E18.59131
G1 X101.837 Y103.153 E18.64704
G1 X100.839 Y103.153 E18.67693
G1 X103.153 Y100.839 E18.77494
G1 X103.153 Y99.841 E18.80484
G1 X99.841 Y103.153 E18.94512
G1 X98.843 Y103.153 E18.97501
G1 X103.153 Y98.843 E19.15757
G1 X103.153 Y97.845 E19.18747
G1 X97.845 Y103.153 E19.41230
G1 X96.867 Y103.133 E19.44160
G1 X103.133 Y96.867 E19.70702
G1 X102.155 Y96.847 E19.73632
G1 X96.847 Y102.155 E19.96115
G1 X96.847 Y101.157 E19.99105
G1 X101.157 Y96.847 E20.17361
G1 X100.159 Y96.847 E20.20350
G1 X96.847 Y100.159 E20.34378
G1 X96.847 Y99.161 E20.37368
G1 X99.161 Y96.847 E20.47168
G1 X98.163 Y96.847 E20.50158
G1 X96.847 Y98.163 E20.55731
G1 X96.847 Y97.165 E20.58720
G1 X97.165 Y96.847 E20.60066
G1 Z1.550 F7800.000
G1 X103.550 Y103.550 F7800.000
G1 X96.450 Y103.550 E20.79791 F900.000
G1 X96.450 Y96.450 E20.99515
G1 X103.550 Y96.450 E21.19240
G1 X103.550 Y103.475 E21.38756
G1 X104.205 Y104.205 F7800.000
G1 X95.795 Y104.205 E21.62117 F900.000
G1 X95.795 Y95.795 E21.85478
G1 X104.205 Y95.795 E22.08839
G1 X104.205 Y104.130 E22.31991
G1 X104.750 Y104.750 F7800.000
G1 X95.250 Y104.750 E22.49555 F900.000
G1 X95.250 Y95.250 E22.67119
G1 X104.750 Y95.250 E22.84683
G1 X104.750 Y104.675 E23.02108
G1 X104.317 Y104.500 F7800.000
G1 X103.153 Y97.165 F7800.000
G1 X102.835 Y96.847 E23.03453 F1200.000
G1 X101.837 Y96.847 E23.06443
G1 X103.153 Y98.163 E23.12016
G1 X103.153 Y99.161 E23.15005
G1 X100.839 Y96.847 E23.24806
G1 X99.841 Y96.847 E23.27796
G1 X103.153 Y100.159 E23.41824
G1 X103.153 Y101.157 E23.44813
G1 X98.843 Y96.847 E23.63069
G1 X97.845 Y96.847 E23.66058
G1 X103.153 Y102.155 E23.88542
G1 X103.133 Y103.133 E23.91472
G1 X96.867 Y96.867 E24.18014
G1 X96.847 Y97.845 E24.20944
G1 X102.155 Y103.153 E24.43427
G1 X101.157 Y103.153 E24.46417
G1 X96.847 Y98.843 E24.64672
G1 X96.847 Y99.841 E24.67662
G1 X100.159 Y103.153 E24.81690
G1 X99.161 Y103.153 E24.84679
G1 X96.847 Y100.839 E24.94480
G1 X96.847 Y101.837 E24.97470
G1 X98.163 Y103.153 E25.03043
G1 X97.165 Y103.153 E25.06032
G1 X96.847 Y102.835 E25.07378
G1 Z1.850 F7800.000
G1 X103.550 Y103.550 F7800.000
G1 X96.450 Y103.550 E25.27102 F900.000
G1 X96.450 Y96.450 E25.46827
G1 X103.550 Y96.450 E25.66552
G1 X103.550 Y103.475 E25.86068
G1 X104.205 Y104.205 F7800.000
G1 X95.795 Y104.205 E26.09429 F900.000
G1 X95.795 Y95.795 E26.32790
G1 X104.205 Y95.795 E26.56150
G1 X104.205 Y104.130 E26.79303
G1 X104.750 Y104.750 F7800.000
G1 X95.250 Y104.750 E26.96867 F900.000
G1 X95.250 Y95.250 E27.14431
G1 X104.750 Y95.250 E27.31994
G1 X104.750 Y104.675 E27.49420
G1 X104.317 Y104.500 F7800.000
G1 X102.835 Y103.153 F7800.000
G1 X103.153 Y102.835 E27.50765 F1200.000
G1 X103.153 Y101.837 E27.53755
G1 X101.837 Y103.153 E27.59328
G1 X100.839 Y103.153 E27.62317
G1 X103.153 Y100.839 E27.72118
G1 X103.153 Y99.841 E27.75107
G1 X99.841 Y103.153 E27.89135
G1 X98.843 Y103.153 E27.92125
G1 X103.153 Y98.843 E28.10381
G1 X103.153 Y97.845 E28.13370
G1 X97.845 Y103.153 E28.35853
G1 X96.867 Y103.133 E28.38783
G1 X103.133 Y96.867 E28.65325
G1 X102.155 Y96.847 E28.68255
G1 X96.847 Y102.155 E28.90738
G1 X96.847 Y101.157 E28.93727
G1 X101.157 Y96.847 E29.11983
G1 X100.159 Y96.847 E29.14973
G1 X96.847 Y100.159 E29.29001
G1 X96.847 Y99.161 E29.31990
G1 X99.161 Y96.847 E29.41791
G1 X98.163 Y96.847 E29.44780
G1 X96.847 Y98.163 E29.50353
G1 X96.847 Y97.165 E29.53343
G1 X97.165 Y96.847 E29.54688
G1 Z2.150 F7800.000
G1 X103.550 Y103.550 F7800.000
G1 X96.450 Y103.550 E29.74413 F900.000
G1 X96.450 Y96.450 E29.94138
G1 X103.550 Y96.450 E30.13862
G1 X103.550 Y103.475 E30.33379
G1 X104.205 Y104.205 F7800.000
G1 X95.795 Y104.205 E30.56739 F900.000
G1 X95.795 Y95.795 E30.80100
G1 X104.205 Y95.795 E31.03461
G1 X104.205 Y104.130 E31.26613
G1 X104.750 Y104.750 F7800.000
G1 X95.250 Y104.750 E31.44177 F900.000
G1 X95.250 Y95.250 E31.61741
G1 X104.750 Y95.250 E31.79305
G1 X104.750 Y104.675 E31.96730
G1 X104.317 Y104.500 F7800.000
G1 X103.153 Y97.165 F7800.000
G1 X102.835 Y96.847 E31.98076 F1200.000
G1 X101.837 Y96.847 E32.01065
G1 X103.153 Y98.163 E32.06638
G1 X103.153 Y99.161 E32.09628
G1 X100.839 Y96.847 E32.19428
G1 X99.841 Y96.847 E32.22418
G1 X103.153 Y100.159 E32.36446
G1 X103.153 Y101.157 E32.39435
G1 X98.843 Y96.847 E32.57691
G1 X97.845 Y96.847 E32.60681
G1 X103.153 Y102.155 E32.83164
G1 X103.133 Y103.133 E32.86094
G1 X96.867 Y96.867 E33.12635
G1 X96.847 Y97.845 E33.15565
G1 X102.155 Y103.153 E33.38049
G1 X101.157 Y103.153 E33.41038
G1 X96.847 Y98.843 E33.59294
G1 X96.847 Y99.841 E33.62283
G1 X100.159 Y103.153 E33.76311
G1 X99.161 Y103.153 E33.79301
G1 X96.847 Y100.839 E33.89101
G1 X96.847 Y101.837 E33.92091
G1 X98.163 Y103.153 E33.97664
G1 X97.165 Y103.153 E34.00653
G1 X96.847 Y102.835 E34.01999
G1 Z2.450 F7800.000
G1 X103.550 Y103.550 F7800.000
G1 X96.450 Y103.550 E34.21724 F900.000
G1 X96.450 Y96.450 E34.41448
G1 X103.550 Y96.450 E34.61173
G1 X103.550 Y103.475 E34.80689
G1 X104.205 Y104.205 F7800.000
G1 X95.795 Y104.205 E35.04050 F900.000
G1 X95.795 Y95.795 E35.27411
G1 X104.205 Y95.795 E35.50772
G1 X104.205 Y104.130 E35.73924
G1 X104.750 Y104.750 F7800.000
G1 X95.250 Y104.750 E35.91488 F900.000
G1 X95.250 Y95.250 E36.09052
G1 X104.750 Y95.250 E36.26616
G1 X104.750 Y104.675 E36.44041
G1 X104.317 Y104.500 F7800.000
G1 X102.835 Y103.153 F7800.000
G1 X103.153 Y102.835 E36.45386 F1200.000
G1 X103.153 Y101.837 E36.48376
G1 X101.837 Y103.153 E36.53949
G1 X100.839 Y103.153 E36.56938
G1 X103.153 Y100.839 E36.66739
G1 X103.153 Y99.841 E36.69728
G1 X99.841 Y103.153 E36.83757
G1 X98.843 Y103.153 E36.86746
G1 X103.153 Y98.843 E37.05002
G1 X103.153 Y97.845 E37.07991
G1 X97.845 Y103.153 E37.30474
G1 X96.867 Y103.133 E37.33404
G1 X103.133 Y96.867 E37.59946
G1 X102.155 Y96.847 E37.62876
G1 X96.847 Y102.155 E37.85359
G1 X96.847 Y101.157 E37.88349
G1 X101.157 Y96.847 E38.06604
G1 X100.159 Y96.847 E38.09594
G1 X96.847 Y100.159 E38.23622
G1 X96.847 Y99.161 E38.26611
G1 X99.161 Y96.847 E38.36412
G1 X98.163 Y96.847 E38.39401
G1 X96.847 Y98.163 E38.44974
G1 X96.847 Y97.165 E38.47964
G1 X97.165 Y96.847 E38.49309
G1 Z2.750 F7800.000
G1 X103.550 Y103.550 F7800.000
G1 X96.450 Y103.550 E38.69034 F900.000
G1 X96.450 Y96.450 E38.88759
G1 X103.550 Y96.450 E39.08483
G1 X103.550 Y103.475 E39.28000
G1 X104.205 Y104.205 F7800.000
G1 X95.795 Y104.205 E39.51361 F900.000
G1 X95.795 Y95.795 E39.74721
G1 X104.205 Y95.795 E39.98082
G1 X104.205 Y104.130 E40.21235
G1 X104.750 Y104.750 F7800.000
G1 X95.250 Y104.750 E40.38798 F900.000
G1 X95.250 Y95.250 E40.56362
G1 X104.750 Y95.250 E40.73926
G1 X104.750 Y104.675 E40.91351
G1 X104.317 Y104.500 F7800.000
G1 X103.153 Y97.165 F7800.000
G1 X102.835 Y96.847 E40.92697 F1200.000
G1 X101.837 Y96.847 E40.95686
G1 X103.153 Y98.163 E41.01259
G1 X103.153 Y99.161 E41.04249
G1 X100.839 Y96.847 E41.14050
G1 X99.841 Y96.847 E41.17039
G1 X103.153 Y100.159 E41.31067
G1 X103.153 Y101.157 E41.34056
G1 X98.843 Y96.847 E41.52312
G1 X97.845 Y96.847 E41.55302
G1 X103.153 Y102.155 E41.77785
G1 X103.133 Y103.133 E41.80715
G1 X96.867 Y96.867 E42.07256
G1 X96.847 Y97.845 E42.10186
G1 X102.155 Y103.153 E42.32670
G1 X101.157 Y103.153 E42.35659
G1 X96.847 Y98.843 E42.53915
G1 X96.847 Y99.841 E42.56904
G1 X100.159 Y103.153 E42.70933
G1 X99.161 Y103.153 E42.73922
G1 X96.847 Y100.839 E42.83723
G1 X96.847 Y101.837 E42.86712
G1 X98.163 Y103.153 E42.92285
G1 X97.165 Y103.153 E42.95274
G1 X96.847 Y102.835 E42.96620
G1 Z3.050 F7800.000
G1 X103.550 Y103.550 F7800.000
G1 X96.450 Y103.550 E43.16345 F900.000
G1 X96.450 Y96.450 E43.36069
G1 X103.550 Y96.450 E43.55794
G1 X103.550 Y103.475 E43.75310
G1 X104.205 Y104.205 F7800.000
G1 X95.795 Y104.205 E43.98671 F900.000
G1 X95.795 Y95.795 E44.22032
G1 X104.205 Y95.795 E44.45393
G1 X104.205 Y104.130 E44.68545
G1 X104.750 Y104.750 F7800.000
G1 X95.250 Y104.750 E44.86109 F900.000
G1 X95.250 Y95.250 E45.03673
G1 X104.750 Y95.250 E45.21237
G1 X104.750 Y104.675 E45.38662
G1 X104.317 Y104.500 F7800.000
G1 X102.835 Y103.153 F7800.000
G1 X103.153 Y102.835 E45.40008 F1200.000
G1 X103.153 Y101.837 E45.42997
G1 X101.837 Y103.153 E45.48570
G1 X100.839 Y103.153 E45.51559
G1 X103.153 Y100.839 E45.61360
G1 X103.153 Y99.841 E45.64349
G1 X99.841 Y103.153 E45.78378
G1 X98.843 Y103.153 E45.81367
G1 X103.153 Y98.843 E45.99623
G1 X103.153 Y97.845 E46.02612
G1 X97.845 Y103.153 E46.25096
G1 X96.867 Y103.133 E46.28026
G1 X103.133 Y96.867 E46.54567
G1 X102.155 Y96.847 E46.57497
G1 X96.847 Y102.155 E46.79980
G1 X96.847 Y101.157 E46.82970
G1 X101.157 Y96.847 E47.01225
G1 X100.159 Y96.847 E47.04215
G1 X96.847 Y100.159 E47.18243
G1 X96.847 Y99.161 E47.21232
G1 X99.161 Y96.847 E47.31033
G1 X98.163 Y96.847 E47.34022
G1 X96.847 Y98.163 E47.39596
G1 X96.847 Y97.165 E47.42585
G1 X97.165 Y96.847 E47.43930
G1 Z3.350 F7800.000
G1 X103.550 Y103.550 F7800.000
G1 X96.450 Y103.550 E47.63655 F900.000
G1 X96.450 Y96.450 E47.83380
G1 X103.550 Y96.450 E48.03105
G1 X103.550 Y103.475 E48.22621
G1 X104.205 Y104.205 F7800.000
G1 X95.795 Y104.205 E48.45982 F900.000
G1 X95.795 Y95.795 E48.69342
G1 X104.205 Y95.795 E48.92703
G1 X104.205 Y104.130 E49.15856
G1 X104.750 Y104.750 F7800.000
G1 X95.250 Y104.750 E49.33420 F900.000
G1 X95.250 Y95.250 E49.50983
G1 X104.750 Y95.250 E49.68547
G1 X104.750 Y104.675 E49.85972
G1 X104.317 Y104.500 F7800.000
G1 X103.153 Y97.165 F7800.000
G1 X102.835 Y96.847 E49.87318 F1200.000
G1 X101.837 Y96.847 E49.90307
G1 X103.153 Y98.163 E49.95881
G1 X103.153 Y99.161 E49.98870
G1 X100.839 Y96.847 E50.08671
G1 X99.841 Y96.847 E50.11660
G1 X103.153 Y100.159 E50.25688
G1 X103.153 Y101.157 E50.28678
G1 X98.843 Y96.847 E50.46933
G1 X97.845 Y96.847 E50.49923
G1 X103.153 Y102.155 E50.72406
G1 X103.133 Y103.133 E50.75336
G1 X96.867 Y96.867 E51.01878
G1 X96.847 Y97.845 E51.04808
G1 X102.155 Y103.153 E51.27291
G1 X101.157 Y103.153 E51.30280
G1 X96.847 Y98.843 E51.48536
G1 X96.847 Y99.841 E51.51525
G1 X100.159 Y103.153 E51.65554
G1 X99.161 Y103.153 E51.68543
G1 X96.847 Y100.839 E51.78344
G1 X96.847 Y101.837 E51.81333
G1 X98.163 Y103.153 E51.86906
G1 X97.165 Y103.153 E51.89895
G1 X96.847 Y102.835 E51.91241
G1 Z3.650 F7800.000
G1 X103.550 Y103.550 F7800.000
G1 X96.450 Y103.550 E52.10966 F900.000
G1 X96.450 Y96.450 E52.30690
G1 X103.550 Y96.450 E52.50415
