; generated by Slic3r 1.2.9 on 2017-04-28 at 21:29:40

; external perimeters extrusion width = 0.50mm
; perimeters extrusion width = 0.64mm
; infill extrusion width = 0.64mm
; solid infill extrusion width = 0.64mm
; top infill extrusion width = 0.64mm

; external perimeters extrusion width = 0.50mm
; perimeters extrusion width = 0.64mm
; infill extrusion width = 0.64mm
; solid infill extrusion width = 0.64mm
; top infill extrusion width = 0.64mm

; external perimeters extrusion width = 0.50mm
; perimeters extrusion width = 0.64mm
; infill extrusion width = 0.64mm
; solid infill extrusion width = 0.64mm
; top infill extrusion width = 0.64mm

M107
M104 S200 T0 ; set temperature
M104 S200 T1 ; set temperature
M104 S200 T2 ; set temperature
G28 ; home all axes
G1 Z5 F5000 ; lift nozzle

M109 S200 T0 ; wait for temperature to be reached
M109 S200 T1 ; wait for temperature to be reached
M109 S200 T2 ; wait for temperature to be reached
G21 ; set units to millimeters
G90 ; use absolute coordinates
M82 ; use absolute distances for extrusion
G92 E0
T0
G92 E0
G1 Z0.350 F6000.000
G1 E-2.00000 F2400.00000
G92 E0
G1 X64.137 Y36.496 F6000.000
G1 E2.00000 F2400.00000
G1 X65.401 Y34.583 E2.07096 F1800.000
G1 X68.228 Y32.816 E2.17412
G1 X108.658 Y20.118 E3.48534
G1 X110.643 Y19.814 E3.54747
G1 X130.643 Y19.814 E4.16630
G1 X132.902 Y20.211 E4.23726
G1 X134.890 Y21.354 E4.30822 F1800.000
G1 X136.369 Y23.107 E4.37919
G1 X137.162 Y25.259 E4.45015
G1 X137.268 Y26.439 E4.48680
G1 X137.268 Y46.439 E5.10563
G1 X136.871 Y48.698 E5.17659
G1 X135.299 Y51.152 E5.26678
G1 X74.141 Y111.559 E7.92653
G1 X72.255 Y112.864 E7.99749
G1 X69.486 Y113.471 E8.08521
G1 X49.486 Y113.471 E8.70404
G1 X47.227 Y113.074 E8.77500
G1 X45.239 Y111.930 E8.84596
G1 X43.759 Y110.178 E8.91693
G1 X42.967 Y108.025 E8.98789
G1 X42.861 Y106.846 E9.02454
G1 X42.861 Y86.846 E9.64336
G1 X43.409 Y84.206 E9.72679
G1 X64.107 Y36.565 E11.33396
G1 E9.33396 F2400.00000
G92 E0
G1 X69.136 Y106.496 F6000.000
G1 E2.00000 F2400.00000
G1 X49.836 Y106.496 E2.59717 F1800.000
G1 X49.836 Y87.196 E3.19433
G1 X69.136 Y87.196 E3.79150
G1 X69.136 Y106.421 E4.38635
G1 X68.757 Y87.879 F6000.000
G1 X68.452 Y87.574 E4.39979 F1800.000
G1 X67.562 Y87.574 E4.42750
G1 X68.757 Y88.769 E4.48013
G1 X68.757 Y89.659 E4.50784
G1 X66.673 Y87.574 E4.59966
G1 X65.783 Y87.574 E4.62737
G1 X68.757 Y90.548 E4.75838
G1 X68.757 Y91.438 E4.78609
G1 X64.893 Y87.574 E4.95629
G1 X64.004 Y87.574 E4.98400
G1 X68.757 Y92.328 E5.19339
G1 X68.757 Y93.217 E5.22110
G1 X63.114 Y87.574 E5.46968
G1 X62.224 Y87.574 E5.49739
G1 X68.757 Y94.107 E5.78516
G1 X68.757 Y94.997 E5.81287
G1 X61.335 Y87.574 E6.13983
G1 X60.445 Y87.574 E6.16754
G1 X68.757 Y95.886 E6.53369
G1 X68.757 Y96.776 E6.56140
G1 X59.555 Y87.574 E6.96673
G1 X58.666 Y87.574 E6.99444
G1 X68.757 Y97.666 E7.43897
G1 X68.757 Y98.555 E7.46668
G1 X57.776 Y87.574 E7.95039
G1 X56.886 Y87.574 E7.97811
G1 X68.757 Y99.445 E8.50101
G1 X68.757 Y100.334 E8.52872
G1 X55.997 Y87.574 E9.09082
G1 X55.107 Y87.574 E9.11853
G1 X68.757 Y101.224 E9.71981
G1 X68.757 Y102.114 E9.74752
G1 X54.218 Y87.574 E10.38799
G1 X53.328 Y87.574 E10.41571
G1 X68.757 Y103.003 E11.09537
G1 X68.757 Y103.893 E11.12308
G1 X52.438 Y87.574 E11.84193
G1 X51.549 Y87.574 E11.86964
G1 X68.757 Y104.783 E12.62768
G1 X68.757 Y105.672 E12.65540
G1 X50.659 Y87.574 E13.45263
G1 X50.214 Y88.019 E13.47222
G1 X68.312 Y106.117 E14.26945
G1 X67.422 Y106.117 E14.29716
G1 X50.214 Y88.909 E15.05520
G1 X50.214 Y89.798 E15.08291
G1 X66.533 Y106.117 E15.80177
G1 X65.643 Y106.117 E15.82948
G1 X50.214 Y90.688 E16.50914
G1 X50.214 Y91.578 E16.53685
G1 X64.754 Y106.117 E17.17732
G1 X63.864 Y106.117 E17.20503
G1 X50.214 Y92.467 E17.80631
G1 X50.214 Y93.357 E17.83403
G1 X62.974 Y106.117 E18.39612
G1 X62.085 Y106.117 E18.42383
G1 X50.214 Y94.247 E18.94673
G1 X50.214 Y95.136 E18.97444
G1 X61.195 Y106.117 E19.45816
G1 X60.305 Y106.117 E19.48587
G1 X50.214 Y96.026 E19.93039
G1 X50.214 Y96.916 E19.95811
G1 X59.416 Y106.117 E20.36344
G1 X58.526 Y106.117 E20.39115
G1 X50.214 Y97.805 E20.75730
G1 X50.214 Y98.695 E20.78501
G1 X57.636 Y106.117 E21.11196
G1 X56.747 Y106.117 E21.13968
G1 X50.214 Y99.585 E21.42744
G1 X50.214 Y100.474 E21.45515
G1 X55.857 Y106.117 E21.70373
G1 X54.967 Y106.117 E21.73144
G1 X50.214 Y101.364 E21.94083
G1 X50.214 Y102.253 E21.96854
G1 X54.078 Y106.117 E22.13874
G1 X53.188 Y106.117 E22.16645
G1 X50.214 Y103.143 E22.29746
G1 X50.214 Y104.033 E22.32517
G1 X52.298 Y106.117 E22.41699
G1 X51.409 Y106.117 E22.44470
G1 X50.214 Y104.922 E22.49733
G1 X50.214 Y105.812 E22.52504
G1 X50.519 Y106.117 E22.53848
G1 Z0.350 F6000.000
G1 E12.53848 F2400.00000
G92 E0
T1
G92 E0
G1 E-2.00000 F2400.00000
G92 E0
G1 X70.563 Y58.786 F6000.000
G1 E2.00000 F2400.00000
G1 X70.563 Y39.486 E2.59717 F1800.000
G1 X89.863 Y39.486 E3.19433
G1 X89.863 Y58.786 E3.79150
G1 X70.638 Y58.786 E4.38635
G1 X71.246 Y58.408 F6000.000
G1 X70.941 Y58.103 E4.39979 F1800.000
G1 X70.941 Y57.213 E4.42750
G1 X72.136 Y58.408 E4.48013
G1 X73.026 Y58.408 E4.50784
G1 X70.941 Y56.323 E4.59966
G1 X70.941 Y55.434 E4.62737
G1 X73.915 Y58.408 E4.75838
G1 X74.805 Y58.408 E4.78609
G1 X70.941 Y54.544 E4.95629
G1 X70.941 Y53.654 E4.98400
G1 X75.695 Y58.408 E5.19339
G1 X76.584 Y58.408 E5.22110
G1 X70.941 Y52.765 E5.46967
G1 X70.941 Y51.875 E5.49738
G1 X77.474 Y58.408 E5.78515
G1 X78.364 Y58.408 E5.81286
G1 X70.941 Y50.985 E6.13982
G1 X70.941 Y50.096 E6.16753
G1 X79.253 Y58.408 E6.53367
G1 X80.143 Y58.408 E6.56139
G1 X70.941 Y49.206 E6.96672
G1 X70.941 Y48.316 E6.99443
G1 X81.033 Y58.408 E7.43896
G1 X81.922 Y58.408 E7.46667
G1 X70.941 Y47.427 E7.95038
G1 X70.941 Y46.537 E7.97809
G1 X82.812 Y58.408 E8.50100
G1 X83.701 Y58.408 E8.52871
G1 X70.941 Y45.648 E9.09080
G1 X70.941 Y44.758 E9.11851
G1 X84.591 Y58.408 E9.71979
G1 X85.481 Y58.408 E9.74751
G1 X70.941 Y43.868 E10.38798
G1 X70.941 Y42.979 E10.41569
G1 X86.370 Y58.408 E11.09535
G1 X87.260 Y58.408 E11.12306
G1 X70.941 Y42.089 E11.84191
G1 X70.941 Y41.199 E11.86962
G1 X88.150 Y58.408 E12.62766
G1 X89.039 Y58.408 E12.65538
G1 X70.941 Y40.310 E13.45261
G1 X71.386 Y39.865 E13.47220
G1 X89.484 Y57.963 E14.26943
G1 X89.484 Y57.073 E14.29714
G1 X72.276 Y39.865 E15.05518
G1 X73.165 Y39.865 E15.08290
G1 X89.484 Y56.184 E15.80175
G1 X89.484 Y55.294 E15.82946
G1 X74.055 Y39.865 E16.50912
G1 X74.945 Y39.865 E16.53683
G1 X89.484 Y54.404 E17.17731
G1 X89.484 Y53.515 E17.20502
G1 X75.834 Y39.865 E17.80630
G1 X76.724 Y39.865 E17.83401
G1 X89.484 Y52.625 E18.39610
G1 X89.484 Y51.735 E18.42382
G1 X77.614 Y39.865 E18.94672
G1 X78.503 Y39.865 E18.97443
G1 X89.484 Y50.846 E19.45815
G1 X89.484 Y49.956 E19.48586
G1 X79.393 Y39.865 E19.93038
G1 X80.283 Y39.865 E19.95809
G1 X89.484 Y49.066 E20.36343
G1 X89.484 Y48.177 E20.39114
G1 X81.172 Y39.865 E20.75729
G1 X82.062 Y39.865 E20.78500
G1 X89.484 Y47.287 E21.11196
G1 X89.484 Y46.397 E21.13967
G1 X82.952 Y39.865 E21.42743
G1 X83.841 Y39.865 E21.45515
G1 X89.484 Y45.508 E21.70372
G1 X89.484 Y44.618 E21.73143
G1 X84.731 Y39.865 E21.94082
G1 X85.621 Y39.865 E21.96853
G1 X89.484 Y43.729 E22.13873
G1 X89.484 Y42.839 E22.16644
G1 X86.510 Y39.865 E22.29745
G1 X87.400 Y39.865 E22.32516
G1 X89.484 Y41.949 E22.41698
G1 X89.484 Y41.060 E22.44470
G1 X88.289 Y39.865 E22.49733
G1 X89.179 Y39.865 E22.52504
G1 X89.484 Y40.170 E22.53848
G1 Z0.350 F6000.000
G1 E12.53848 F2400.00000
G92 E0
T2
G92 E0
G1 E-2.00000 F2400.00000
G92 E0
G1 X110.993 Y46.089 F6000.000
G1 E2.00000 F2400.00000
G1 X110.993 Y26.789 E2.59717 F1800.000
G1 X130.293 Y26.789 E3.19433
G1 X130.293 Y46.089 E3.79150
G1 X111.068 Y46.089 E4.38635
G1 X111.677 Y45.710 F6000.000
G1 X111.372 Y45.405 E4.39979 F1800.000
G1 X111.372 Y44.515 E4.42750
G1 X112.567 Y45.710 E4.48013
G1 X113.456 Y45.710 E4.50784
G1 X111.372 Y43.626 E4.59966
G1 X111.372 Y42.736 E4.62737
G1 X114.346 Y45.710 E4.75838
G1 X115.236 Y45.710 E4.78609
G1 X111.372 Y41.846 E4.95629
G1 X111.372 Y40.957 E4.98400
G1 X116.125 Y45.710 E5.19339
G1 X117.015 Y45.710 E5.22110
G1 X111.372 Y40.067 E5.46967
G1 X111.372 Y39.178 E5.49738
G1 X117.905 Y45.710 E5.78515
G1 X118.794 Y45.710 E5.81286
G1 X111.372 Y38.288 E6.13982
G1 X111.372 Y37.398 E6.16753
G1 X119.684 Y45.710 E6.53367
G1 X120.574 Y45.710 E6.56139
G1 X111.372 Y36.509 E6.96672
G1 X111.372 Y35.619 E6.99443
G1 X121.463 Y45.710 E7.43896
G1 X122.353 Y45.710 E7.46667
G1 X111.372 Y34.729 E7.95038
G1 X111.372 Y33.840 E7.97809
G1 X123.242 Y45.710 E8.50100
G1 X124.132 Y45.710 E8.52871
G1 X111.372 Y32.950 E9.09080
G1 X111.372 Y32.060 E9.11851
G1 X125.022 Y45.710 E9.71979
G1 X125.911 Y45.710 E9.74751
G1 X111.372 Y31.171 E10.38798
G1 X111.372 Y30.281 E10.41569
G1 X126.801 Y45.710 E11.09535
G1 X127.691 Y45.710 E11.12306
G1 X111.372 Y29.391 E11.84191
G1 X111.372 Y28.502 E11.86962
G1 X128.580 Y45.710 E12.62766
G1 X129.470 Y45.710 E12.65538
G1 X111.372 Y27.612 E13.45261
G1 X111.817 Y27.167 E13.47220
G1 X129.915 Y45.265 E14.26943
G1 X129.915 Y44.376 E14.29714
G1 X112.706 Y27.167 E15.05518
G1 X113.596 Y27.167 E15.08290
G1 X129.915 Y43.486 E15.80175
G1 X129.915 Y42.596 E15.82946
G1 X114.486 Y27.167 E16.50912
G1 X115.375 Y27.167 E16.53683
G1 X129.915 Y41.707 E17.17731
G1 X129.915 Y40.817 E17.20502
G1 X116.265 Y27.167 E17.80630
G1 X117.155 Y27.167 E17.83401
G1 X129.915 Y39.927 E18.39610
G1 X129.915 Y39.038 E18.42382
G1 X118.044 Y27.167 E18.94672
G1 X118.934 Y27.167 E18.97443
G1 X129.915 Y38.148 E19.45815
G1 X129.915 Y37.259 E19.48586
G1 X119.824 Y27.167 E19.93038
G1 X120.713 Y27.167 E19.95809
G1 X129.915 Y36.369 E20.36343
G1 X129.915 Y35.479 E20.39114
G1 X121.603 Y27.167 E20.75729
G1 X122.493 Y27.167 E20.78500
G1 X129.915 Y34.590 E21.11196
G1 X129.915 Y33.700 E21.13967
G1 X123.382 Y27.167 E21.42743
G1 X124.272 Y27.167 E21.45515
G1 X129.915 Y32.810 E21.70372
G1 X129.915 Y31.921 E21.73143
G1 X125.161 Y27.167 E21.94082
G1 X126.051 Y27.167 E21.96853
G1 X129.915 Y31.031 E22.13873
G1 X129.915 Y30.141 E22.16644
G1 X126.941 Y27.167 E22.29745
G1 X127.830 Y27.167 E22.32516
G1 X129.915 Y29.252 E22.41698
G1 X129.915 Y28.362 E22.44470
G1 X128.720 Y27.167 E22.49733
G1 X129.610 Y27.167 E22.52504
G1 X129.915 Y27.472 E22.53848
G1 Z0.700 F6000.000
G1 E12.53848 F2400.00000
G92 E0
T0
G92 E0
G1 X69.236 Y106.596 F6000.000
G1 E10.00000 F2400.00000
G1 X49.736 Y106.596 E10.41025 F3000.000
G1 X49.736 Y87.096 E10.82050
G1 X69.236 Y87.096 E11.23074
G1 X69.236 Y106.521 E11.63941
G1 X68.649 Y106.287 F6000.000
G1 X68.927 Y106.009 E11.65033 F6000.000
G1 X68.927 Y105.200 E11.67280
G1 X67.840 Y106.287 E11.71550
G1 X67.031 Y106.287 E11.73797
G1 X68.927 Y104.391 E11.81244
G1 X68.927 Y103.582 E11.83491
G1 X66.222 Y106.287 E11.94116
G1 X65.413 Y106.287 E11.96363
G1 X68.927 Y102.773 E12.10165
G1 X68.927 Y101.964 E12.12412
G1 X64.604 Y106.287 E12.29392
G1 X63.795 Y106.287 E12.31639
G1 X68.927 Y101.156 E12.51797
G1 X68.927 Y100.347 E12.54043
G1 X62.986 Y106.287 E12.77379
G1 X62.178 Y106.287 E12.79625
G1 X68.927 Y99.538 E13.06138
G1 X68.927 Y98.729 E13.08385
G1 X61.369 Y106.287 E13.38075
G1 X60.560 Y106.287 E13.40322
G1 X68.927 Y97.920 E13.73190
G1 X68.927 Y97.111 E13.75437
G1 X59.751 Y106.287 E14.11482
G1 X58.942 Y106.287 E14.13729
G1 X68.927 Y96.302 E14.52952
G1 X68.927 Y95.493 E14.55199
G1 X58.133 Y106.287 E14.97600
G1 X57.324 Y106.287 E14.99847
G1 X68.927 Y94.684 E15.45425
G1 X68.927 Y93.876 E15.47672
G1 X56.515 Y106.287 E15.96427
G1 X55.707 Y106.287 E15.98674
G1 X68.927 Y93.067 E16.50608
G1 X68.927 Y92.258 E16.52855
G1 X54.898 Y106.287 E17.07965
G1 X54.089 Y106.287 E17.10212
G1 X68.927 Y91.449 E17.68501
G1 X68.927 Y90.640 E17.70748
G1 X53.280 Y106.287 E18.32214
G1 X52.471 Y106.287 E18.34460
G1 X68.927 Y89.831 E18.99104
G1 X68.927 Y89.022 E19.01351
G1 X51.662 Y106.287 E19.69172
G1 X50.853 Y106.287 E19.71419
G1 X68.927 Y88.213 E20.42418
G1 X68.907 Y87.425 E20.44610
G1 X50.064 Y106.267 E21.18629
G1 X50.044 Y105.478 E21.20821
G1 X68.118 Y87.405 E21.91819
G1 X67.309 Y87.405 E21.94066
G1 X50.044 Y104.669 E22.61887
G1 X50.044 Y103.860 E22.64134
G1 X66.500 Y87.405 E23.28777
G1 X65.691 Y87.405 E23.31024
G1 X50.044 Y103.051 E23.92490
G1 X50.044 Y102.242 E23.94737
G1 X64.882 Y87.405 E24.53025
G1 X64.073 Y87.405 E24.55272
G1 X50.044 Y101.434 E25.10383
G1 X50.044 Y100.625 E25.12630
G1 X63.264 Y87.405 E25.64563
G1 X62.456 Y87.405 E25.66810
G1 X50.044 Y99.816 E26.15565
G1 X50.044 Y99.007 E26.17812
G1 X61.647 Y87.405 E26.63390
G1 X60.838 Y87.405 E26.65637
G1 X50.044 Y98.198 E27.08037
G1 X50.044 Y97.389 E27.10284
G1 X60.029 Y87.405 E27.49507
G1 X59.220 Y87.405 E27.51754
G1 X50.044 Y96.580 E27.87799
G1 X50.044 Y95.771 E27.90046
G1 X58.411 Y87.405 E28.22914
G1 X57.602 Y87.405 E28.25161
G1 X50.044 Y94.962 E28.54851
G1 X50.044 Y94.154 E28.57098
G1 X56.793 Y87.405 E28.83610
G1 X55.985 Y87.405 E28.85857
G1 X50.044 Y93.345 E29.09192
G1 X50.044 Y92.536 E29.11439
G1 X55.176 Y87.405 E29.31596
G1 X54.367 Y87.405 E29.33843
G1 X50.044 Y91.727 E29.50823
G1 X50.044 Y90.918 E29.53070
G1 X53.558 Y87.405 E29.66872
G1 X52.749 Y87.405 E29.69119
G1 X50.044 Y90.109 E29.79744
G1 X50.044 Y89.300 E29.81990
G1 X51.940 Y87.405 E29.89437
G1 X51.131 Y87.405 E29.91684
G1 X50.044 Y88.491 E29.95954
G1 X50.044 Y87.683 E29.98201
G1 X50.322 Y87.405 E29.99293
G1 Z0.700 F6000.000
G1 E19.99293 F2400.00000
G92 E0
T1
G92 E0
G1 X70.463 Y58.886 F6000.000
G1 E10.00000 F2400.00000
G1 X70.463 Y39.386 E10.41025 F3000.000
G1 X89.963 Y39.386 E10.82050
G1 X89.963 Y58.886 E11.23074
G1 X70.538 Y58.886 E11.63941
G1 X89.376 Y58.577 F6000.000
G1 X89.654 Y58.299 E11.65033 F6000.000
G1 X89.654 Y57.490 E11.67280
G1 X88.567 Y58.577 E11.71550
G1 X87.758 Y58.577 E11.73797
G1 X89.654 Y56.682 E11.81244
G1 X89.654 Y55.873 E11.83491
G1 X86.949 Y58.577 E11.94116
G1 X86.140 Y58.577 E11.96363
G1 X89.654 Y55.064 E12.10165
G1 X89.654 Y54.255 E12.12412
G1 X85.331 Y58.577 E12.29392
G1 X84.523 Y58.577 E12.31639
G1 X89.654 Y53.446 E12.51797
G1 X89.654 Y52.637 E12.54043
G1 X83.714 Y58.577 E12.77379
G1 X82.905 Y58.577 E12.79625
G1 X89.654 Y51.828 E13.06138
G1 X89.654 Y51.019 E13.08385
G1 X82.096 Y58.577 E13.38075
G1 X81.287 Y58.577 E13.40322
G1 X89.654 Y50.211 E13.73190
G1 X89.654 Y49.402 E13.75437
G1 X80.478 Y58.577 E14.11482
G1 X79.669 Y58.577 E14.13729
G1 X89.654 Y48.593 E14.52952
G1 X89.654 Y47.784 E14.55199
G1 X78.860 Y58.577 E14.97600
G1 X78.052 Y58.577 E14.99847
G1 X89.654 Y46.975 E15.45425
G1 X89.654 Y46.166 E15.47672
G1 X77.243 Y58.577 E15.96427
G1 X76.434 Y58.577 E15.98674
G1 X89.654 Y45.357 E16.50608
G1 X89.654 Y44.548 E16.52855
G1 X75.625 Y58.577 E17.07965
G1 X74.816 Y58.577 E17.10212
G1 X89.654 Y43.740 E17.68501
G1 X89.654 Y42.931 E17.70748
G1 X74.007 Y58.577 E18.32214
G1 X73.198 Y58.577 E18.34460
G1 X89.654 Y42.122 E18.99104
G1 X89.654 Y41.313 E19.01351
G1 X72.389 Y58.577 E19.69172
G1 X71.581 Y58.577 E19.71419
G1 X89.654 Y40.504 E20.42418
G1 X89.634 Y39.715 E20.44610
G1 X70.792 Y58.557 E21.18629
G1 X70.772 Y57.768 E21.20821
G1 X88.845 Y39.695 E21.91819
G1 X88.036 Y39.695 E21.94066
G1 X70.772 Y56.960 E22.61887
G1 X70.772 Y56.151 E22.64134
G1 X87.227 Y39.695 E23.28777
G1 X86.418 Y39.695 E23.31024
G1 X70.772 Y55.342 E23.92490
G1 X70.772 Y54.533 E23.94737
G1 X85.609 Y39.695 E24.53025
G1 X84.801 Y39.695 E24.55272
G1 X70.772 Y53.724 E25.10383
G1 X70.772 Y52.915 E25.12630
G1 X83.992 Y39.695 E25.64563
G1 X83.183 Y39.695 E25.66810
G1 X70.772 Y52.106 E26.15565
G1 X70.772 Y51.297 E26.17812
G1 X82.374 Y39.695 E26.63390
G1 X81.565 Y39.695 E26.65637
G1 X70.772 Y50.489 E27.08037
G1 X70.772 Y49.680 E27.10284
G1 X80.756 Y39.695 E27.49507
G1 X79.947 Y39.695 E27.51754
G1 X70.772 Y48.871 E27.87799
G1 X70.772 Y48.062 E27.90046
G1 X79.138 Y39.695 E28.22914
