; generated by Slic3r 1.2.9 on 2017-04-28 at 03:39:38

; external perimeters extrusion width = 0.50mm
; perimeters extrusion width = 0.72mm
; infill extrusion width = 0.72mm
; solid infill extrusion width = 0.72mm
; top infill extrusion width = 0.72mm

; external perimeters extrusion width = 0.50mm
; perimeters extrusion width = 0.72mm
; infill extrusion width = 0.72mm
; solid infill extrusion width = 0.72mm
; top infill extrusion width = 0.72mm

M107
M104 S200 T0 ; set temperature
M104 S200 T1 ; set temperature
G28 ; home all axes
G1 Z5 F5000 ; lift nozzle

M109 S200 T0 ; wait for temperature to be reached
M109 S200 T1 ; wait for temperature to be reached
G21 ; set units to millimeters
G90 ; use absolute coordinates
M82 ; use absolute distances for extrusion
G92 E0
T0
G92 E0
G1 Z0.350 F7800.000
G1 E-2.00000 F2400.00000
G92 E0
G1 X14.053 Y28.412 F7800.000
G1 E2.00000 F2400.00000
G1 X16.205 Y27.619 E2.07096 F1800.000
G1 X17.384 Y27.513 E2.10761
G1 X37.384 Y27.513 E2.72644
G1 X39.459 Y27.846 E2.79146
G1 X117.799 Y53.679 E5.34379 F1800.000
G1 X119.820 Y54.764 E5.41475
G1 X121.350 Y56.472 E5.48571
G1 X122.206 Y58.600 E5.55667
G1 X122.349 Y59.971 E5.59932
G1 X122.349 Y79.971 E6.21815
G1 X121.952 Y82.230 E6.28911
G1 X120.809 Y84.218 E6.36008
G1 X119.056 Y85.697 E6.43104
G1 X116.904 Y86.490 E6.50200
G1 X115.724 Y86.596 E6.53865
G1 X95.724 Y86.596 E7.15748
G1 X93.650 Y86.262 E7.22249
G1 X15.310 Y60.429 E9.77482
G1 X13.289 Y59.345 E9.84579
G1 X11.759 Y57.636 E9.91675
G1 X10.903 Y55.509 E9.98771
G1 X10.760 Y54.138 E10.03036
G1 X10.760 Y34.138 E10.64919
G1 X11.157 Y31.879 E10.72015
G1 X12.300 Y29.891 E10.79111
G1 X13.995 Y28.460 E10.85976
G1 E8.85976 F2400.00000
G92 E0
G1 X35.785 Y52.538 F7800.000
G1 E2.00000 F2400.00000
G1 X18.984 Y52.538 E2.51983 F1800.000
G1 X18.984 Y35.737 E3.03966
G1 X35.785 Y35.737 E3.55948
G1 X35.785 Y52.463 E4.07699
G1 X36.410 Y53.163 F7800.000
G1 X18.359 Y53.163 E4.63549 F1800.000
G1 X18.359 Y35.113 E5.19399
G1 X36.410 Y35.113 E5.75248
G1 X36.410 Y53.088 E6.30866
G1 X37.034 Y53.788 F7800.000
G1 X17.734 Y53.788 E6.90583 F1800.000
G1 X17.734 Y34.488 E7.50300
G1 X37.034 Y34.488 E8.10016
G1 X37.034 Y53.713 E8.69501
G1 X36.601 Y53.538 F7800.000
G1 X35.406 Y36.421 F7800.000
G1 X35.101 Y36.116 E8.70860 F1800.000
G1 X34.202 Y36.116 E8.73691
G1 X35.406 Y37.320 E8.79055
G1 X35.406 Y38.220 E8.81887
G1 X33.302 Y36.116 E8.91255
G1 X32.403 Y36.116 E8.94086
G1 X35.406 Y39.119 E9.07459
G1 X35.406 Y40.018 E9.10291
G1 X31.504 Y36.116 E9.27668
G1 X30.604 Y36.116 E9.30500
G1 X35.406 Y40.918 E9.51882
G1 X35.406 Y41.817 E9.54714
G1 X29.705 Y36.116 E9.80101
G1 X28.806 Y36.116 E9.82932
G1 X35.406 Y42.716 E10.12324
G1 X35.406 Y43.616 E10.15156
G1 X27.906 Y36.116 E10.48552
G1 X27.007 Y36.116 E10.51384
G1 X35.406 Y44.515 E10.88784
G1 X35.406 Y45.414 E10.91616
G1 X26.108 Y36.116 E11.33022
G1 X25.208 Y36.116 E11.35854
G1 X35.406 Y46.314 E11.81264
G1 X35.406 Y47.213 E11.84096
G1 X24.309 Y36.116 E12.33510
G1 X23.410 Y36.116 E12.36342
G1 X35.406 Y48.112 E12.89762
G1 X35.406 Y49.012 E12.92594
G1 X22.510 Y36.116 E13.50018
G1 X21.611 Y36.116 E13.52850
G1 X35.406 Y49.911 E14.14279
G1 X35.406 Y50.810 E14.17110
G1 X20.712 Y36.116 E14.82544
G1 X19.813 Y36.116 E14.85376
G1 X35.406 Y51.710 E15.54814
G1 X34.956 Y52.159 E15.56817
G1 X19.363 Y36.566 E16.26255
G1 X19.363 Y37.465 E16.29087
G1 X34.057 Y52.159 E16.94520
G1 X33.158 Y52.159 E16.97352
G1 X19.363 Y38.364 E17.58781
G1 X19.363 Y39.264 E17.61613
G1 X32.258 Y52.159 E18.19037
G1 X31.359 Y52.159 E18.21869
G1 X19.363 Y40.163 E18.75288
G1 X19.363 Y41.062 E18.78120
G1 X30.460 Y52.159 E19.27535
G1 X29.561 Y52.159 E19.30366
G1 X19.363 Y41.962 E19.75777
G1 X19.363 Y42.861 E19.78608
G1 X28.661 Y52.159 E20.20014
G1 X27.762 Y52.159 E20.22846
G1 X19.363 Y43.760 E20.60246
G1 X19.363 Y44.660 E20.63078
G1 X26.863 Y52.159 E20.96474
G1 X25.963 Y52.159 E20.99306
G1 X19.363 Y45.559 E21.28697
G1 X19.363 Y46.458 E21.31529
G1 X25.064 Y52.159 E21.56916
G1 X24.165 Y52.159 E21.59748
G1 X19.363 Y47.358 E21.81130
G1 X19.363 Y48.257 E21.83961
G1 X23.265 Y52.159 E22.01339
G1 X22.366 Y52.159 E22.04171
G1 X19.363 Y49.156 E22.17543
G1 X19.363 Y50.056 E22.20375
G1 X21.467 Y52.159 E22.29743
G1 X20.567 Y52.159 E22.32575
G1 X19.363 Y50.955 E22.37938
G1 X19.363 Y51.854 E22.40770
G1 X19.668 Y52.159 E22.42128
G1 Z0.350 F7800.000
G1 E12.42128 F2400.00000
G92 E0
T1
G92 E0
G1 E-2.00000 F2400.00000
G92 E0
G1 X97.324 Y61.571 F7800.000
G1 E2.00000 F2400.00000
G1 X114.125 Y61.571 E2.51983 F1800.000
G1 X114.125 Y78.371 E3.03966
G1 X97.324 Y78.371 E3.55948
G1 X97.324 Y61.646 E4.07699
G1 X96.699 Y60.946 F7800.000
G1 X114.750 Y60.946 E4.63549 F1800.000
G1 X114.750 Y78.996 E5.19399
G1 X96.699 Y78.996 E5.75248
G1 X96.699 Y61.021 E6.30866
G1 X96.074 Y60.321 F7800.000
G1 X115.374 Y60.321 E6.90583 F1800.000
G1 X115.374 Y79.621 E7.50300
G1 X96.074 Y79.621 E8.10016
G1 X96.074 Y60.396 E8.69501
G1 X96.507 Y60.571 F7800.000
G1 X98.008 Y77.992 F7800.000
G1 X97.703 Y77.687 E8.70860 F1800.000
G1 X97.703 Y76.788 E8.73691
G1 X98.907 Y77.992 E8.79055
G1 X99.807 Y77.992 E8.81886
G1 X97.703 Y75.889 E8.91254
G1 X97.703 Y74.989 E8.94086
G1 X100.706 Y77.992 E9.07459
G1 X101.605 Y77.992 E9.10290
G1 X97.703 Y74.090 E9.27668
G1 X97.703 Y73.191 E9.30500
G1 X102.505 Y77.992 E9.51882
G1 X103.404 Y77.992 E9.54713
G1 X97.703 Y72.291 E9.80100
G1 X97.703 Y71.392 E9.82932
G1 X104.303 Y77.992 E10.12323
G1 X105.202 Y77.992 E10.15155
G1 X97.703 Y70.493 E10.48551
G1 X97.703 Y69.593 E10.51383
G1 X106.102 Y77.992 E10.88784
G1 X107.001 Y77.992 E10.91615
G1 X97.703 Y68.694 E11.33021
G1 X97.703 Y67.795 E11.35853
G1 X107.900 Y77.992 E11.81263
G1 X108.800 Y77.992 E11.84095
G1 X97.703 Y66.895 E12.33509
G1 X97.703 Y65.996 E12.36341
G1 X109.699 Y77.992 E12.89761
G1 X110.598 Y77.992 E12.92592
G1 X97.703 Y65.097 E13.50017
G1 X97.703 Y64.197 E13.52848
G1 X111.498 Y77.992 E14.14277
G1 X112.397 Y77.992 E14.17109
G1 X97.703 Y63.298 E14.82543
G1 X97.703 Y62.399 E14.85374
G1 X113.296 Y77.992 E15.54813
G1 X113.746 Y77.543 E15.56815
G1 X98.152 Y61.949 E16.26253
G1 X99.052 Y61.949 E16.29085
G1 X113.746 Y76.643 E16.94519
G1 X113.746 Y75.744 E16.97351
G1 X99.951 Y61.949 E17.58780
G1 X100.850 Y61.949 E17.61611
G1 X113.746 Y74.845 E18.19036
G1 X113.746 Y73.945 E18.21867
G1 X101.750 Y61.949 E18.75287
G1 X102.649 Y61.949 E18.78119
G1 X113.746 Y73.046 E19.27534
G1 X113.746 Y72.147 E19.30365
G1 X103.548 Y61.949 E19.75776
G1 X104.448 Y61.949 E19.78607
G1 X113.746 Y71.248 E20.20013
G1 X113.746 Y70.348 E20.22845
G1 X105.347 Y61.949 E20.60246
G1 X106.246 Y61.949 E20.63077
G1 X113.746 Y69.449 E20.96474
G1 X113.746 Y68.550 E20.99305
G1 X107.146 Y61.949 E21.28697
G1 X108.045 Y61.949 E21.31529
G1 X113.746 Y67.650 E21.56915
G1 X113.746 Y66.751 E21.59747
G1 X108.944 Y61.949 E21.81129
G1 X109.844 Y61.949 E21.83961
G1 X113.746 Y65.852 E22.01338
G1 X113.746 Y64.952 E22.04170
G1 X110.743 Y61.949 E22.17543
G1 X111.642 Y61.949 E22.20375
G1 X113.746 Y64.053 E22.29743
G1 X113.746 Y63.154 E22.32574
G1 X112.542 Y61.949 E22.37938
G1 X113.441 Y61.949 E22.40770
G1 X113.746 Y62.254 E22.42128
G1 Z0.650 F7800.000
G1 E12.42128 F2400.00000
G92 E0
T0
G92 E0
G1 X35.935 Y52.688 F7800.000
G1 E10.00000 F2400.00000
G1 X18.834 Y52.688 E10.47502 F3600.000
G1 X18.834 Y35.587 E10.95005
G1 X35.935 Y35.587 E11.42507
G1 X35.935 Y52.613 E11.89802
G1 X36.589 Y53.343 F7800.000
G1 X18.180 Y53.343 E12.40940 F3600.000
G1 X18.180 Y34.933 E12.92079
G1 X36.589 Y34.933 E13.43217
G1 X36.589 Y53.268 E13.94147
G1 X37.134 Y53.888 F7800.000
G1 X17.634 Y53.888 E14.30200 F1800.000
G1 X17.634 Y34.388 E14.66252
G1 X37.134 Y34.388 E15.02304
G1 X37.134 Y53.813 E15.38217
G1 X36.701 Y53.638 F7800.000
G1 X35.220 Y52.291 F7800.000
G1 X35.537 Y51.973 E15.39485 F1200.000
G1 X35.537 Y51.032 E15.42140
G1 X34.279 Y52.291 E15.47162
G1 X33.339 Y52.291 E15.49816
G1 X35.537 Y50.092 E15.58592
G1 X35.537 Y49.151 E15.61247
G1 X32.398 Y52.291 E15.73777
G1 X31.458 Y52.291 E15.76431
G1 X35.537 Y48.211 E15.92715
G1 X35.537 Y47.271 E15.95370
G1 X30.517 Y52.291 E16.15408
G1 X29.577 Y52.291 E16.18063
G1 X35.537 Y46.330 E16.41855
G1 X35.537 Y45.390 E16.44509
G1 X28.636 Y52.291 E16.72055
G1 X27.696 Y52.291 E16.74710
G1 X35.537 Y44.449 E17.06010
G1 X35.537 Y43.509 E17.08664
G1 X26.755 Y52.291 E17.43718
G1 X25.815 Y52.291 E17.46373
G1 X35.537 Y42.568 E17.85181
G1 X35.537 Y41.628 E17.87835
G1 X24.874 Y52.291 E18.30398
G1 X23.934 Y52.291 E18.33052
G1 X35.537 Y40.687 E18.79368
G1 X35.537 Y39.747 E18.82023
G1 X22.993 Y52.291 E19.32093
G1 X22.053 Y52.291 E19.34747
G1 X35.537 Y38.806 E19.88571
G1 X35.537 Y37.866 E19.91226
G1 X21.112 Y52.291 E20.48804
G1 X20.172 Y52.291 E20.51459
G1 X35.537 Y36.925 E21.12791
G1 X35.517 Y36.005 E21.15389
G1 X19.252 Y52.271 E21.80316
G1 X19.232 Y51.350 E21.82914
G1 X34.597 Y35.985 E22.44246
G1 X33.656 Y35.985 E22.46901
G1 X19.232 Y50.410 E23.04479
G1 X19.232 Y49.469 E23.07133
G1 X32.716 Y35.985 E23.60958
G1 X31.776 Y35.985 E23.63612
G1 X19.232 Y48.529 E24.13682
G1 X19.232 Y47.588 E24.16337
G1 X30.835 Y35.985 E24.62653
G1 X29.895 Y35.985 E24.65307
G1 X19.232 Y46.648 E25.07869
G1 X19.232 Y45.707 E25.10524
G1 X28.954 Y35.985 E25.49332
G1 X28.014 Y35.985 E25.51986
G1 X19.232 Y44.767 E25.87040
G1 X19.232 Y43.826 E25.89695
G1 X27.073 Y35.985 E26.20995
G1 X26.133 Y35.985 E26.23649
G1 X19.232 Y42.886 E26.51195
G1 X19.232 Y41.945 E26.53850
G1 X25.192 Y35.985 E26.77642
G1 X24.252 Y35.985 E26.80296
G1 X19.232 Y41.005 E27.00334
G1 X19.232 Y40.064 E27.02989
G1 X23.311 Y35.985 E27.19272
G1 X22.371 Y35.985 E27.21927
G1 X19.232 Y39.124 E27.34457
G1 X19.232 Y38.183 E27.37111
G1 X21.430 Y35.985 E27.45887
G1 X20.490 Y35.985 E27.48542
G1 X19.232 Y37.243 E27.53564
G1 X19.232 Y36.302 E27.56218
G1 X19.549 Y35.985 E27.57486
G1 Z0.650 F7800.000
G1 E17.57486 F2400.00000
G92 E0
T1
G92 E0
G1 X97.174 Y61.420 F7800.000
G1 E10.00000 F2400.00000
G1 X114.275 Y61.420 E10.47502 F3600.000
G1 X114.275 Y78.521 E10.95005
G1 X97.174 Y78.521 E11.42507
G1 X97.174 Y61.495 E11.89802
G1 X96.519 Y60.766 F7800.000
G1 X114.929 Y60.766 E12.40940 F3600.000
G1 X114.929 Y79.176 E12.92079
G1 X96.519 Y79.176 E13.43217
G1 X96.519 Y60.841 E13.94147
G1 X95.974 Y60.221 F7800.000
G1 X115.474 Y60.221 E14.30200 F1800.000
G1 X115.474 Y79.721 E14.66252
G1 X95.974 Y79.721 E15.02304
G1 X95.974 Y60.296 E15.38217
G1 X96.407 Y60.471 F7800.000
G1 X97.889 Y61.818 F7800.000
G1 X97.571 Y62.135 E15.39485 F1200.000
G1 X97.571 Y63.076 E15.42140
G1 X98.830 Y61.818 E15.47162
G1 X99.770 Y61.818 E15.49816
G1 X97.571 Y64.016 E15.58592
G1 X97.571 Y64.957 E15.61247
G1 X100.711 Y61.818 E15.73777
G1 X101.651 Y61.818 E15.76431
G1 X97.571 Y65.897 E15.92715
G1 X97.571 Y66.838 E15.95369
G1 X102.592 Y61.818 E16.15407
G1 X103.532 Y61.818 E16.18062
G1 X97.571 Y67.778 E16.41854
G1 X97.571 Y68.719 E16.44508
G1 X104.473 Y61.818 E16.72054
G1 X105.413 Y61.818 E16.74709
G1 X97.571 Y69.659 E17.06009
G1 X97.571 Y70.600 E17.08663
G1 X106.353 Y61.818 E17.43717
G1 X107.294 Y61.818 E17.46372
G1 X97.571 Y71.540 E17.85180
G1 X97.571 Y72.481 E17.87834
G1 X108.234 Y61.818 E18.30396
G1 X109.175 Y61.818 E18.33051
G1 X97.571 Y73.421 E18.79367
G1 X97.571 Y74.362 E18.82021
G1 X110.115 Y61.818 E19.32091
G1 X111.056 Y61.818 E19.34746
G1 X97.571 Y75.302 E19.88570
G1 X97.571 Y76.243 E19.91224
G1 X111.996 Y61.818 E20.48803
G1 X112.937 Y61.818 E20.51457
G1 X97.571 Y77.183 E21.12789
G1 X97.591 Y78.104 E21.15388
G1 X113.857 Y61.838 E21.80314
G1 X113.877 Y62.758 E21.82913
G1 X98.512 Y78.124 E22.44245
G1 X99.452 Y78.124 E22.46899
G1 X113.877 Y63.699 E23.04478
G1 X113.877 Y64.639 E23.07132
G1 X100.393 Y78.124 E23.60956
G1 X101.333 Y78.124 E23.63611
G1 X113.877 Y65.580 E24.13681
G1 X113.877 Y66.520 E24.16335
G1 X102.274 Y78.124 E24.62651
G1 X103.214 Y78.124 E24.65306
G1 X113.877 Y67.461 E25.07868
G1 X113.877 Y68.401 E25.10523
G1 X104.155 Y78.124 E25.49331
G1 X105.095 Y78.124 E25.51985
G1 X113.877 Y69.342 E25.87039
G1 X113.877 Y70.282 E25.89694
G1 X106.036 Y78.124 E26.20994
G1 X106.976 Y78.124 E26.23648
G1 X113.877 Y71.223 E26.51194
G1 X113.877 Y72.163 E26.53849
G1 X107.917 Y78.124 E26.77641
G1 X108.857 Y78.124 E26.80295
G1 X113.877 Y73.104 E27.00334
G1 X113.877 Y74.044 E27.02988
G1 X109.798 Y78.124 E27.19272
G1 X110.738 Y78.124 E27.21927
G1 X113.877 Y74.985 E27.34457
G1 X113.877 Y75.925 E27.37111
G1 X111.679 Y78.124 E27.45887
G1 X112.619 Y78.124 E27.48542
G1 X113.877 Y76.866 E27.53564
G1 X113.877 Y77.806 E27.56218
G1 X113.560 Y78.124 E27.57486
G1 Z0.950 F7800.000
G1 E17.57486 F2400.00000
G92 E0
T0
G92 E0
G1 X35.935 Y52.688 F7800.000
G1 E10.00000 F2400.00000
G1 X18.834 Y52.688 E10.47502 F3600.000
G1 X18.834 Y35.587 E10.95005
G1 X35.935 Y35.587 E11.42507
G1 X35.935 Y52.613 E11.89802
G1 X36.589 Y53.343 F7800.000
G1 X18.180 Y53.343 E12.40940 F3600.000
G1 X18.180 Y34.933 E12.92079
G1 X36.589 Y34.933 E13.43217
G1 X36.589 Y53.268 E13.94147
G1 X37.134 Y53.888 F7800.000
G1 X17.634 Y53.888 E14.30200 F1800.000
G1 X17.634 Y34.388 E14.66252
G1 X37.134 Y34.388 E15.02304
G1 X37.134 Y53.813 E15.38217
G1 X36.701 Y53.638 F7800.000
G1 X35.537 Y36.302 F7800.000
G1 X35.220 Y35.985 E15.39485 F1200.000
G1 X34.279 Y35.985 E15.42140
G1 X35.537 Y37.243 E15.47162
G1 X35.537 Y38.183 E15.49816
G1 X33.339 Y35.985 E15.58592
G1 X32.398 Y35.985 E15.61247
G1 X35.537 Y39.124 E15.73777
G1 X35.537 Y40.064 E15.76431
G1 X31.458 Y35.985 E15.92715
G1 X30.517 Y35.985 E15.95370
G1 X35.537 Y41.005 E16.15408
G1 X35.537 Y41.945 E16.18063
G1 X29.577 Y35.985 E16.41855
G1 X28.636 Y35.985 E16.44509
G1 X35.537 Y42.886 E16.72055
G1 X35.537 Y43.826 E16.74710
G1 X27.696 Y35.985 E17.06010
G1 X26.755 Y35.985 E17.08664
G1 X35.537 Y44.767 E17.43718
G1 X35.537 Y45.707 E17.46373
G1 X25.815 Y35.985 E17.85181
G1 X24.874 Y35.985 E17.87835
G1 X35.537 Y46.648 E18.30398
G1 X35.537 Y47.588 E18.33052
G1 X23.934 Y35.985 E18.79368
G1 X22.993 Y35.985 E18.82023
G1 X35.537 Y48.529 E19.32093
G1 X35.537 Y49.469 E19.34747
G1 X22.053 Y35.985 E19.88571
G1 X21.112 Y35.985 E19.91226
G1 X35.537 Y50.410 E20.48804
G1 X35.537 Y51.350 E20.51459
G1 X20.172 Y35.985 E21.12791
G1 X19.252 Y36.005 E21.15389
G1 X35.517 Y52.271 E21.80316
G1 X34.597 Y52.291 E21.82914
G1 X19.232 Y36.925 E22.44246
G1 X19.232 Y37.866 E22.46901
G1 X33.656 Y52.291 E23.04479
G1 X32.716 Y52.291 E23.07133
G1 X19.232 Y38.806 E23.60958
G1 X19.232 Y39.747 E23.63612
G1 X31.776 Y52.291 E24.13682
G1 X30.835 Y52.291 E24.16337
G1 X19.232 Y40.687 E24.62653
G1 X19.232 Y41.628 E24.65307
G1 X29.895 Y52.291 E25.07869
G1 X28.954 Y52.291 E25.10524
G1 X19.232 Y42.568 E25.49332
G1 X19.232 Y43.509 E25.51986
G1 X28.014 Y52.291 E25.87040
G1 X27.073 Y52.291 E25.89695
G1 X19.232 Y44.449 E26.20995
G1 X19.232 Y45.390 E26.23649
G1 X26.133 Y52.291 E26.51195
G1 X25.192 Y52.291 E26.53850
G1 X19.232 Y46.330 E26.77642
G1 X19.232 Y47.271 E26.80296
G1 X24.252 Y52.291 E27.00334
G1 X23.311 Y52.291 E27.02989
G1 X19.232 Y48.211 E27.19272
G1 X19.232 Y49.152 E27.21927
G1 X22.371 Y52.291 E27.34457
G1 X21.430 Y52.291 E27.37111
G1 X19.232 Y50.092 E27.45887
G1 X19.232 Y51.032 E27.48542
G1 X20.490 Y52.291 E27.53564
G1 X19.549 Y52.291 E27.56218
G1 X19.232 Y51.973 E27.57486
G1 Z0.950 F7800.000
G1 E17.57486 F2400.00000
G92 E0
T1
G92 E0
G1 X97.174 Y61.420 F7800.000
G1 E10.00000 F2400.00000
G1 X114.275 Y61.420 E10.47502 F3600.000
G1 X114.275 Y78.521 E10.95005
G1 X97.174 Y78.521 E11.42507
G1 X97.174 Y61.495 E11.89802
G1 X96.519 Y60.766 F7800.000
G1 X114.929 Y60.766 E12.40940 F3600.000
G1 X114.929 Y79.176 E12.92079
G1 X96.519 Y79.176 E13.43217
G1 X96.519 Y60.841 E13.94147
G1 X95.974 Y60.221 F7800.000
G1 X115.474 Y60.221 E14.30200 F1800.000
G1 X115.474 Y79.721 E14.66252
