;FLAVOR:RepRap
;TIME:163
;Generated with Cura_SteamEngine 2.3.0
M190 S37
M104 S37
M109 S37
G21 ;metric values
G90 ;absolute positioning
M82 ;set extruder to absolute mode
M107 ;start with the fan off
G28 X0 Y0 ;move X/Y to min endstops
G28 Z0 ;move Z to min endstops
G1 Z15.0 F9000 ;move the platform down 15mm
G92 E0 ;zero the extruded length
G1 F200 E3 ;extrude 3mm of feed stock
G92 E0 ;zero the extruded length again
G1 F9000
;Put printing message on LCD screen
M117 Printing...
;LAYER_COUNT:4
;LAYER:0
M107
G1 F1500 E-6.5
G0 F1800 X87.365 Y87.007 Z.3
;TYPE:SKIRT
G1 F1500 E0
G1 F1800 X87.815 Y86.665 E0.08636
G1 X88.308 Y86.389 E0.17268
G1 X88.836 Y86.185 E0.25917
G1 X89.386 Y86.058 E0.34541
G1 X90.009 Y86.009 E0.44089
G1 X109.991 Y86.01 E3.49392
G1 X110.555 Y86.05 E3.58031
G1 X111.108 Y86.169 E3.66673
G1 X111.638 Y86.365 E3.75307
G1 X112.136 Y86.633 E3.83948
G1 X112.59 Y86.97 E3.92587
G1 X112.993 Y87.366 E4.01219
G1 X113.336 Y87.816 E4.09864
G1 X113.611 Y88.309 E4.18489
G1 X113.815 Y88.837 E4.27138
G1 X113.942 Y89.388 E4.35777
G1 X113.991 Y90.01 E4.4531
G1 X113.991 Y109.991 E7.50597
G1 X113.951 Y110.555 E7.59236
G1 X113.832 Y111.108 E7.67879
G1 X113.636 Y111.638 E7.76513
G1 X113.368 Y112.135 E7.8514
G1 X113.032 Y112.59 E7.93782
G1 X112.635 Y112.993 E8.02425
G1 X112.185 Y113.335 E8.11061
G1 X111.692 Y113.611 E8.19694
G1 X111.164 Y113.815 E8.28342
G1 X110.614 Y113.942 E8.36967
G1 X109.991 Y113.991 E8.46515
G1 X90.009 Y113.991 E11.51817
G1 X89.445 Y113.951 E11.60456
G1 X88.892 Y113.832 E11.69099
G1 X88.362 Y113.636 E11.77733
G1 X87.865 Y113.368 E11.8636
G1 X87.41 Y113.032 E11.95002
G1 X87.007 Y112.635 E12.03645
G1 X86.665 Y112.185 E12.12281
G1 X86.389 Y111.692 E12.20913
G1 X86.185 Y111.164 E12.29562
G1 X86.058 Y110.614 E12.38186
G1 X86.009 Y109.991 E12.47734
G1 X86.009 Y90.009 E15.53037
G1 X86.049 Y89.445 E15.61676
G1 X86.168 Y88.892 E15.70319
G1 X86.364 Y88.362 E15.78952
G1 X86.632 Y87.865 E15.8758
G1 X86.968 Y87.41 E15.96222
G1 X87.365 Y87.007 E16.04865
G0 X87.756 Y87.201
G1 X88.198 Y86.898 E16.13053
G1 X88.681 Y86.663 E16.21259
G1 X89.192 Y86.503 E16.29441
G1 X89.722 Y86.42 E16.37637
G1 X90.009 Y86.409 E16.42025
G1 X109.991 Y86.41 E19.47328
G1 X110.526 Y86.45 E19.55525
G1 X111.049 Y86.569 E19.6372
G1 X111.548 Y86.764 E19.71906
G1 X112.013 Y87.032 E19.80106
G1 X112.433 Y87.365 E19.88295
G1 X112.799 Y87.757 E19.96489
G1 X113.103 Y88.199 E20.04686
G1 X113.337 Y88.682 E20.12886
G1 X113.497 Y89.194 E20.21082
G1 X113.58 Y89.723 E20.29263
G1 X113.591 Y90.01 E20.33651
G1 X113.591 Y109.991 E23.38938
G1 X113.551 Y110.526 E23.47136
G1 X113.432 Y111.049 E23.55331
G1 X113.237 Y111.548 E23.63516
G1 X112.969 Y112.013 E23.71716
G1 X112.636 Y112.433 E23.79906
G1 X112.244 Y112.799 E23.881
G1 X111.802 Y113.102 E23.96288
G1 X111.319 Y113.337 E24.04494
G1 X110.808 Y113.497 E24.12676
G1 X110.278 Y113.58 E24.20872
G1 X109.991 Y113.591 E24.2526
G1 X90.009 Y113.591 E27.30563
G1 X89.474 Y113.551 E27.3876
G1 X88.951 Y113.432 E27.46955
G1 X88.452 Y113.237 E27.55141
G1 X87.987 Y112.969 E27.63341
G1 X87.567 Y112.636 E27.7153
G1 X87.201 Y112.244 E27.79724
G1 X86.898 Y111.802 E27.87912
G1 X86.663 Y111.319 E27.96119
G1 X86.503 Y110.808 E28.043
G1 X86.42 Y110.278 E28.12497
G1 X86.409 Y109.991 E28.16885
G1 X86.409 Y90.009 E31.22187
G1 X86.449 Y89.474 E31.30384
G1 X86.568 Y88.951 E31.38579
G1 X86.763 Y88.452 E31.46765
G1 X87.031 Y87.987 E31.54965
G1 X87.364 Y87.567 E31.63155
G1 X87.756 Y87.201 E31.71349
G0 X88.145 Y87.408
G1 X88.578 Y87.147 E31.79073
G1 X89.046 Y86.957 E31.86791
G1 X89.539 Y86.844 E31.94519
G1 X90.009 Y86.809 E32.0172
G1 X109.991 Y86.81 E35.07022
G1 X110.495 Y86.85 E35.14747
G1 X110.987 Y86.969 E35.22481
G1 X111.453 Y87.164 E35.30199
G1 X111.883 Y87.429 E35.37916
G1 X112.266 Y87.76 E35.45651
G1 X112.592 Y88.146 E35.5337
G1 X112.853 Y88.579 E35.61095
G1 X113.043 Y89.048 E35.68826
G1 X113.156 Y89.54 E35.76539
G1 X113.191 Y90.01 E35.8374
G1 X113.191 Y109.991 E38.89027
G1 X113.151 Y110.495 E38.96752
G1 X113.032 Y110.986 E39.04471
G1 X112.838 Y111.453 E39.12198
G1 X112.572 Y111.883 E39.19923
G1 X112.242 Y112.266 E39.27647
G1 X111.855 Y112.592 E39.35379
G1 X111.422 Y112.853 E39.43103
G1 X110.954 Y113.043 E39.50821
G1 X110.461 Y113.156 E39.58549
G1 X109.991 Y113.191 E39.6575
G1 X90.009 Y113.191 E42.71052
G1 X89.505 Y113.151 E42.78777
G1 X89.014 Y113.032 E42.86496
G1 X88.547 Y112.838 E42.94222
G1 X88.117 Y112.572 E43.01948
G1 X87.734 Y112.242 E43.09672
G1 X87.408 Y111.855 E43.17403
G1 X87.147 Y111.422 E43.25128
G1 X86.957 Y110.954 E43.32845
G1 X86.844 Y110.461 E43.40573
G1 X86.809 Y109.991 E43.47774
G1 X86.809 Y90.009 E46.53077
G1 X86.849 Y89.505 E46.60801
G1 X86.968 Y89.014 E46.6852
G1 X87.162 Y88.547 E46.76247
G1 X87.428 Y88.117 E46.83972
G1 X87.758 Y87.734 E46.91697
G1 X88.145 Y87.408 E46.99428
G1 F1500 E40.49428
G0 F1800 X90.628 Y89.335
G0 X90.628 Y90.628
G0 X94.6 Y94.6
;TYPE:WALL-INNER
G1 F1500 E46.99428
G1 F1800 X105.4 Y94.6 E48.6444
G1 X105.4 Y105.4 E50.29451
G1 X94.6 Y105.4 E51.94463
G1 X94.6 Y94.6 E53.59475
G0 X94.2 Y94.2
G1 X105.8 Y94.2 E55.3671
G1 X105.8 Y105.8 E57.13945
G1 X94.2 Y105.8 E58.9118
G1 X94.2 Y94.2 E60.68415
G0 X93.8 Y93.8
G1 X106.2 Y93.8 E62.57873
G1 X106.2 Y106.2 E64.47331
G1 X93.8 Y106.2 E66.36789
G1 X93.8 Y93.8 E68.26247
G0 X93.4 Y93.4
G1 X106.6 Y93.4 E70.27928
G1 X106.6 Y106.6 E72.29609
G1 X93.4 Y106.6 E74.31291
G1 X93.4 Y93.4 E76.32972
G0 X93 Y93
G1 X107 Y93 E78.46876
G1 X107 Y107 E80.6078
G1 X93 Y107 E82.74684
G1 X93 Y93 E84.88589
G0 X92.6 Y92.6
G1 X107.4 Y92.6 E87.14716
G1 X107.4 Y107.4 E89.40843
G1 X92.6 Y107.4 E91.66971
G1 X92.6 Y92.6 E93.93098
G0 X92.2 Y92.2
G1 X107.8 Y92.2 E96.31448
G1 X107.8 Y107.8 E98.69799
G1 X92.2 Y107.8 E101.08149
G1 X92.2 Y92.2 E103.465
G0 X91.8 Y91.8
G1 X108.2 Y91.8 E105.97073
G1 X108.2 Y108.2 E108.47647
G1 X91.8 Y108.2 E110.9822
G1 X91.8 Y91.8 E113.48794
G0 X91.4 Y91.4
G1 X108.6 Y91.4 E116.11591
G1 X108.6 Y108.6 E118.74387
G1 X91.4 Y108.6 E121.37184
G1 X91.4 Y91.4 E123.99981
G0 X91 Y91
G1 X109 Y91 E126.75
G1 X109 Y109 E129.5002
G1 X91 Y109 E132.2504
G1 X91 Y91 E135.0006
G0 X90.6 Y90.6
G1 X109.4 Y90.6 E137.87302
G1 X109.4 Y109.4 E140.74545
G1 X90.6 Y109.4 E143.61788
G1 X90.6 Y90.6 E146.49031
G0 X90.2 Y90.2
;TYPE:WALL-OUTER
G1 X109.8 Y90.2 E149.48497
G1 X109.8 Y109.8 E152.47963
G1 X90.2 Y109.8 E155.47429
G1 X90.2 Y90.2 E158.46895
G0 X90.67 Y90.67
G0 X94.779 Y94.779
;TYPE:SKIN
G1 X105.219 Y105.219 E160.72478
G0 X105.289 Y105.289
G0 X105.219 Y104.653
G1 X95.345 Y94.779 E162.85831
G0 X95.275 Y94.709
G0 X95.911 Y94.779
G1 X105.219 Y104.088 E164.86966
G0 X105.289 Y104.158
G0 X105.219 Y103.522
G1 X96.476 Y94.779 E166.75881
G0 X96.406 Y94.709
G0 X97.042 Y94.779
G1 X105.219 Y102.956 E168.52566
G0 X105.289 Y103.026
G0 X105.219 Y102.391
G1 X97.608 Y94.779 E170.17032
G0 X97.538 Y94.709
G0 X98.173 Y94.779
G1 X105.219 Y101.825 E171.69279
G0 X105.289 Y101.895
G0 X105.219 Y101.259
G1 X98.739 Y94.779 E173.09296
G0 X98.669 Y94.709
G0 X99.305 Y94.779
G1 X105.219 Y100.694 E174.37095
G0 X105.289 Y100.764
G0 X105.219 Y100.128
G1 X99.871 Y94.779 E175.52663
G0 X99.801 Y94.709
G0 X100.436 Y94.779
G1 X105.219 Y99.562 E176.56012
G0 X105.289 Y99.632
G0 X105.219 Y98.997
G1 X101.002 Y94.779 E177.47142
G0 X100.932 Y94.709
G0 X101.568 Y94.779
G1 X105.219 Y98.431 E178.26042
G0 X105.289 Y98.501
G0 X105.219 Y97.865
G1 X102.133 Y94.779 E178.92723
G0 X102.063 Y94.709
G0 X102.699 Y94.779
G1 X105.219 Y97.3 E179.47185
G0 X105.289 Y97.37
G0 X105.219 Y96.734
G1 X103.265 Y94.779 E179.89417
G0 X103.195 Y94.709
G0 X103.83 Y94.779
G1 X105.219 Y96.168 E180.1943
G0 X105.289 Y96.238
G0 X105.219 Y95.602
G1 X104.396 Y94.779 E180.37213
G0 X104.326 Y94.709
G0 X104.962 Y94.779
G1 X105.219 Y95.037 E180.42777
G0 X104.653 Y105.219
G1 X94.779 Y95.345 E182.5613
G0 X94.709 Y95.275
G0 X94.779 Y95.911
G1 X104.088 Y105.219 E184.57265
G0 X104.158 Y105.289
G0 X103.522 Y105.219
G1 X94.779 Y96.476 E186.4618
G0 X94.709 Y96.406
G0 X94.779 Y97.042
G1 X102.956 Y105.219 E188.22865
G0 X103.026 Y105.289
G0 X102.391 Y105.219
G1 X94.779 Y97.608 E189.87331
G0 X94.709 Y97.538
G0 X94.779 Y98.173
G1 X101.825 Y105.219 E191.39578
G0 X101.895 Y105.289
G0 X101.259 Y105.219
G1 X94.779 Y98.739 E192.79595
G0 X94.709 Y98.669
G0 X94.779 Y99.305
G1 X100.694 Y105.219 E194.07394
G0 X100.764 Y105.289
G0 X100.128 Y105.219
G1 X94.779 Y99.871 E195.22962
G0 X94.709 Y99.801
G0 X94.779 Y100.436
G1 X99.562 Y105.219 E196.26311
G0 X99.632 Y105.289
G0 X98.997 Y105.219
G1 X94.779 Y101.002 E197.17441
G0 X94.709 Y100.932
G0 X94.779 Y101.568
G1 X98.431 Y105.219 E197.96341
G0 X98.501 Y105.289
G0 X97.865 Y105.219
G1 X94.779 Y102.133 E198.63022
G0 X94.709 Y102.063
G0 X94.779 Y102.699
G1 X97.3 Y105.219 E199.17484
G0 X97.37 Y105.289
G0 X96.734 Y105.219
G1 X94.779 Y103.265 E199.59716
G0 X94.709 Y103.195
G0 X94.779 Y103.83
G1 X96.168 Y105.219 E199.89729
G0 X96.238 Y105.289
G0 X95.602 Y105.219
G1 X94.779 Y104.396 E200.07512
G0 X94.709 Y104.326
G0 X94.779 Y104.962
G1 X95.037 Y105.219 E200.13076
;TIME_ELAPSED:54.973524
;LAYER:1
G0 F2400 X94.6 Y105.4 Z5.3
;TYPE:WALL-INNER
G1 X94.6 Y94.6 E227.63273
G1 X105.4 Y94.6 E255.13471
G1 X105.4 Y105.4 E282.63668
G1 X94.6 Y105.4 E310.13866
G0 X94.2 Y105.8
G1 X94.2 Y94.2 E339.67781
G1 X105.8 Y94.2 E369.21697
G1 X105.8 Y105.8 E398.75613
G1 X94.2 Y105.8 E428.29529
G0 X93.8 Y106.2
G1 X93.8 Y93.8 E459.87163
G1 X106.2 Y93.8 E491.44797
G1 X106.2 Y106.2 E523.02431
G1 X93.8 Y106.2 E554.60065
G0 X93.4 Y106.6
G1 X93.4 Y93.4 E588.21417
G1 X106.6 Y93.4 E621.8277
G1 X106.6 Y106.6 E655.44122
G1 X93.4 Y106.6 E689.05475
G0 X93 Y107
G1 X93 Y93 E724.70545
G1 X107 Y93 E760.35616
G1 X107 Y107 E796.00687
G1 X93 Y107 E831.65757
G0 X92.6 Y107.4
G1 X92.6 Y92.6 E869.34546
G1 X107.4 Y92.6 E907.03336
G1 X107.4 Y107.4 E944.72125
G1 X92.6 Y107.4 E982.40914
G0 X92.2 Y107.8
G1 X92.2 Y92.2 E1022.13421
G1 X107.8 Y92.2 E1061.85928
G1 X107.8 Y107.8 E1101.58436
G1 X92.2 Y107.8 E1141.30943
G0 X91.8 Y108.2
G1 X91.8 Y91.8 E1183.07169
G1 X108.2 Y91.8 E1224.83395
G1 X108.2 Y108.2 E1266.5962
G1 X91.8 Y108.2 E1308.35846
G0 X91.4 Y108.6
G1 X91.4 Y91.4 E1352.1579
G1 X108.6 Y91.4 E1395.95734
G1 X108.6 Y108.6 E1439.75678
G1 X91.4 Y108.6 E1483.55622
G0 X91 Y109
G1 X91 Y91 E1529.39284
G1 X109 Y91 E1575.22947
G1 X109 Y109 E1621.06609
G1 X91 Y109 E1666.90272
G0 X90.6 Y109.4
G1 X90.6 Y90.6 E1714.77652
G1 X109.4 Y90.6 E1762.65033
G1 X109.4 Y109.4 E1810.52414
G1 X90.6 Y109.4 E1858.39794
G0 X90.2 Y109.8
;TYPE:WALL-OUTER
G1 F1650 X90.2 Y90.2 E1908.30893
G1 X109.8 Y90.2 E1958.21992
G1 X109.8 Y109.8 E2008.13091
G1 X90.2 Y109.8 E2058.0419
G0 F2400 X90.67 Y109.33
G0 X95.033 Y105.219
;TYPE:SKIN
G1 F1350 X105.219 Y95.033 E2094.72439
G0 X105.289 Y94.963
G0 F2400 X104.907 Y94.779
G1 F1350 X94.779 Y104.907 E2131.19801
G0 X94.709 Y104.977
G0 F2400 X94.779 Y104.341
G1 F1350 X104.341 Y94.779 E2165.6333
G0 X104.411 Y94.709
G0 F2400 X103.775 Y94.779
G1 F1350 X94.779 Y103.775 E2198.03029
G0 X94.709 Y103.845
G0 F2400 X94.779 Y103.21
G1 F1350 X103.21 Y94.779 E2228.39255
G0 X103.28 Y94.709
G0 F2400 X102.644 Y94.779
G1 F1350 X94.779 Y102.644 E2256.71651
G0 X94.709 Y102.714
G0 F2400 X94.779 Y102.078
G1 F1350 X102.078 Y94.779 E2283.00214
G0 X102.148 Y94.709
G0 F2400 X101.512 Y94.779
G1 F1350 X94.779 Y101.512 E2307.24946
G0 X94.709 Y101.582
G0 F2400 X94.779 Y100.947
G1 F1350 X100.947 Y94.779 E2329.46206
G0 X101.017 Y94.709
G0 F2400 X100.381 Y94.779
G1 F1350 X94.779 Y100.381 E2349.63635
G0 X94.709 Y100.451
G0 F2400 X94.779 Y99.815
G1 F1350 X99.815 Y94.779 E2367.77232
G0 X99.885 Y94.709
G0 F2400 X99.25 Y94.779
G1 F1350 X94.779 Y99.25 E2383.87358
G0 X94.709 Y99.32
G0 F2400 X94.779 Y98.684
G1 F1350 X98.684 Y94.779 E2397.93652
G0 X98.754 Y94.709
G0 F2400 X98.118 Y94.779
G1 F1350 X94.779 Y98.118 E2409.96115
G0 X94.709 Y98.188
G0 F2400 X94.779 Y97.553
G1 F1350 X97.553 Y94.779 E2419.95106
G0 X97.623 Y94.709
G0 F2400 X96.987 Y94.779
G1 F1350 X94.779 Y96.987 E2427.90265
G0 X94.709 Y97.057
G0 F2400 X94.779 Y96.421
G1 F1350 X96.421 Y94.779 E2433.81593
G0 X96.491 Y94.709
G0 F2400 X95.856 Y94.779
G1 F1350 X94.779 Y95.856 E2437.69449
G0 X94.709 Y95.926
G0 F2400 X94.779 Y95.29
G1 F1350 X95.29 Y94.779 E2439.53474
G0 F2400 X105.219 Y95.598
G1 F1350 X95.598 Y105.219 E2474.18251
G0 X95.528 Y105.289
G0 F2400 X96.164 Y105.219
G1 F1350 X105.219 Y96.164 E2506.79197
G0 X105.289 Y96.094
G0 F2400 X105.219 Y96.73
G1 F1350 X96.73 Y105.219 E2537.36311
G0 X96.66 Y105.289
G0 F2400 X97.295 Y105.219
G1 F1350 X105.219 Y97.295 E2565.89953
G0 X105.289 Y97.225
G0 F2400 X105.219 Y97.861
G1 F1350 X97.861 Y105.219 E2592.39764
G0 X97.791 Y105.289
G0 F2400 X98.427 Y105.219
G1 F1350 X105.219 Y98.427 E2616.85744
G0 X105.289 Y98.357
G0 F2400 X105.219 Y98.992
G1 F1350 X98.992 Y105.219 E2639.28252
G0 X98.922 Y105.289
G0 F2400 X99.558 Y105.219
G1 F1350 X105.219 Y99.558 E2659.66928
G0 X105.289 Y99.488
G0 F2400 X105.219 Y100.124
G1 F1350 X100.124 Y105.219 E2678.01773
G0 X100.054 Y105.289
G0 F2400 X100.689 Y105.219
G1 F1350 X105.219 Y100.689 E2694.33146
G0 X105.289 Y100.619
G0 F2400 X105.219 Y101.255
G1 F1350 X101.255 Y105.219 E2708.60687
G0 X101.185 Y105.289
G0 F2400 X101.821 Y105.219
G1 F1350 X105.219 Y101.821 E2720.84397
G0 X105.289 Y101.751
G0 F2400 X105.219 Y102.386
G1 F1350 X102.386 Y105.219 E2731.04636
G0 X102.316 Y105.289
G0 F2400 X102.952 Y105.219
G1 F1350 X105.219 Y102.952 E2739.21042
G0 X105.289 Y102.882
G0 F2400 X105.219 Y103.518
G1 F1350 X103.518 Y105.219 E2745.33618
G0 X103.448 Y105.289
G0 F2400 X104.083 Y105.219
G1 F1350 X105.219 Y104.083 E2749.42721
G0 X105.289 Y104.013
G0 F2400 X105.219 Y104.649
G1 F1350 X104.649 Y105.219 E2751.47994
G0 X104.579 Y105.289
;TIME_ELAPSED:89.114345
;LAYER:2
G0 F3000 X104.579 Y105.289 Z10.3
G0 X105.4 Y105.4
;TYPE:WALL-INNER
G1 X94.6 Y105.4 E2778.98191
G1 X94.6 Y94.6 E2806.48388
G1 X105.4 Y94.6 E2833.98586
G1 X105.4 Y105.4 E2861.48783
G0 X105.8 Y105.8
G1 X94.2 Y105.8 E2891.02699
G1 X94.2 Y94.2 E2920.56615
G1 X105.8 Y94.2 E2950.1053
G1 X105.8 Y105.8 E2979.64446
G0 X106.2 Y106.2
G1 X93.8 Y106.2 E3011.2208
G1 X93.8 Y93.8 E3042.79714
G1 X106.2 Y93.8 E3074.37348
G1 X106.2 Y106.2 E3105.94982
G0 X106.6 Y106.6
G1 X93.4 Y106.6 E3139.56335
G1 X93.4 Y93.4 E3173.17687
G1 X106.6 Y93.4 E3206.7904
G1 X106.6 Y106.6 E3240.40392
G0 X107 Y107
G1 X93 Y107 E3276.05463
G1 X93 Y93 E3311.70534
G1 X107 Y93 E3347.35604
G1 X107 Y107 E3383.00675
G0 X107.4 Y107.4
G1 X92.6 Y107.4 E3420.69464
G1 X92.6 Y92.6 E3458.38253
G1 X107.4 Y92.6 E3496.07042
G1 X107.4 Y107.4 E3533.75831
G0 X107.8 Y107.8
G1 X92.2 Y107.8 E3573.48339
G1 X92.2 Y92.2 E3613.20846
G1 X107.8 Y92.2 E3652.93353
G1 X107.8 Y107.8 E3692.65861
G0 X108.2 Y108.2
G1 X91.8 Y108.2 E3734.42086
G1 X91.8 Y91.8 E3776.18312
G1 X108.2 Y91.8 E3817.94538
G1 X108.2 Y108.2 E3859.70764
G0 X108.6 Y108.6
G1 X91.4 Y108.6 E3903.50708
G1 X91.4 Y91.4 E3947.30652
G1 X108.6 Y91.4 E3991.10596
G1 X108.6 Y108.6 E4034.9054
G0 X109 Y109
G1 X91 Y109 E4080.74202
G1 X91 Y91 E4126.57864
G1 X109 Y91 E4172.41527
G1 X109 Y109 E4218.25189
G0 X109.4 Y109.4
G1 X90.6 Y109.4 E4266.1257
G1 X90.6 Y90.6 E4313.9995
G1 X109.4 Y90.6 E4361.87331
G1 X109.4 Y109.4 E4409.74712
G0 X109.8 Y109.8
;TYPE:WALL-OUTER
G1 F1500 X90.2 Y109.8 E4459.65811
G1 X90.2 Y90.2 E4509.5691
G1 X109.8 Y90.2 E4559.48009
G1 X109.8 Y109.8 E4609.39108
G0 F3000 X109.33 Y109.33
G0 X105.219 Y105.219
;TYPE:SKIN
G1 F900 X94.779 Y94.779 E4646.98829
G0 X94.709 Y94.709
G0 F3000 X95.345 Y94.779
G1 F900 X105.219 Y104.653 E4682.54718
G0 X105.289 Y104.723
G0 F3000 X105.219 Y104.088
G1 F900 X95.911 Y94.779 E4716.06956
G0 X95.841 Y94.709
G0 F3000 X96.476 Y94.779
G1 F900 X105.219 Y103.522 E4747.55542
G0 X105.289 Y103.592
G0 F3000 X105.219 Y102.956
G1 F900 X97.042 Y94.779 E4777.00297
G0 X96.972 Y94.709
G0 F3000 X97.608 Y94.779
G1 F900 X105.219 Y102.391 E4804.414
G0 X105.289 Y102.461
G0 F3000 X105.219 Y101.825
G1 F900 X98.173 Y94.779 E4829.78851
G0 X98.103 Y94.709
G0 F3000 X98.739 Y94.779
G1 F900 X105.219 Y101.259 E4853.12471
G0 X105.289 Y101.329
G0 F3000 X105.219 Y100.694
G1 F900 X99.305 Y94.779 E4874.4244
G0 X99.235 Y94.709
G0 F3000 X99.871 Y94.779
G1 F900 X105.219 Y100.128 E4893.68576
G0 X105.289 Y100.198
G0 F3000 X105.219 Y99.562
G1 F900 X100.436 Y94.779 E4910.91062
